!!!!SEGMENT: pl-sa--236-a-vi-40--001-001_toeschi-carl-joseph--sinfonia-allegro.krn
!!!cenid: 17xx:1998
!!!COM: Toeschi, Carl Joseph
!!!COM-rismID: pe30003139
!!!CDT: 1731-1788
!!!CNT: Italian
!!!OPR: Sinfonia
!!!OTL: Allegro
!!!OMV: 001
!!!PDT:
!!!AGN: Secular
!!!YEC: Copyright 2022 Narodowy Instytut Fryderyka Chopina (https://polishscores.org)
!!!YEM: License CC-BY-4.0 (https://creativecommons.org/licenses/by/4.0)
!!!SMS-siglum: PL-SA
!!!SMS-shelfmark: 236/A VI 40
!!!SMS-shelfwork: 001-001 M
!!!SMS-variant:
!!!SMS-altvar:
!!!NIFC-rismSourceID: 1001035309
!!!NIFC-rismChildID: 1001035309
!!!NIFC-islandoraID: none
!!!URL-pdf-islandora:
!!!URL-scan: https://bc.bdsandomierz.pl/dlibra/publication/1589/edition/1557/content @EN{Scan in the Sandomierz Diocese Digital Library} @PL{Skany w portalu Cyfrowa Biblioteka Diecezjalna w Sandomierzu}
!!!IIIF:
!!!ONB-nifc: UWAGA: części Sinfonii: 1. Allegro, 2. Andante, 3. Allegro
!!!AIN: 2 oboe 1 organ 1 viola 2 violn
!!!key: F
**kern	**dynam	**kern	**dynam	**kern	**dynam	**kern	**dynam	**kern	**dynam	**kern	**dynam
*group3	*	*group2	*	*group2	*	*group2	*	*group1	*	*group1	*
*part6	*	*part5	*	*part4	*	*part3	*	*part2	*	*part1	*
*staff6	*	*staff5	*	*staff4	*	*staff3	*	*staff2	*	*staff1	*
*I"[Basso]	*	*I"Violia	*	*I"Violino Secundo	*	*I"Violino Primo	*	*I"Oboa Secundo	*	*I"Oboa Prima	*
*I'[b]	*	*I'vla	*	*I'vl 2	*	*I'vl 1	*	*I'ob 2	*	*I'ob 1	*
*Iorgan	*	*Iviola	*	*Ivioln	*	*Ivioln	*	*Ioboe	*	*Ioboe	*
*ICklav	*	*ICstr	*	*ICstr	*	*ICstr	*	*ICww	*	*ICww	*
*clefF4	*	*clefC3	*	*clefG2	*	*clefG2	*	*clefG2	*	*clefG2	*
*k[b-]	*	*k[b-]	*	*k[b-]	*	*k[b-]	*	*k[b-]	*	*k[b-]	*
*F:	*	*F:	*	*F:	*	*F:	*	*F:	*	*F:	*
*M4/4	*	*M4/4	*	*M4/4	*	*M4/4	*	*M4/4	*	*M4/4	*
*met(c)	*	*met(c)	*	*met(c)	*	*met(c)	*	*met(c)	*	*met(c)	*
=1	=1	=1	=1	=1	=1	=1	=1	=1	=1	=1	=1
*2\right	*2\right	*2\right	*2\right	*2\right	*2\right	*2\right	*2\right	*2\right	*2\right	*2\right	*2\right
!	!	!LO:TX:a:i:t=Allo	!	!LO:TX:a:i:t=Allo	!	!LO:TX:a:i:t=Allo	!	!LO:TX:a:i:t=Allo	!	!LO:TX:a:i:t=allo	!
2F\	.	2f\	.	2ff 2cc 2f/	.	2ff 2cc 2f/	.	2ff\	.	2ff\	.
4.c\	.	4.cc\	.	4.cc\	.	4.cc\	.	4.cc\	.	4.cc\	.
!	!	!	!	!	!	!	!	!	!LO:DY:a	!	!
8A\	.	8a\	.	8a\	.	8a\	.	8a\	p	8a/	.
=2	=2	=2	=2	=2	=2	=2	=2	=2	=2	=2	=2
16F\LL	.	16f\LL	.	(16f/LL	.	(16f/LL	.	[>1f	.	1f	.
16G\	.	16g\	.	16g/	.	16g/	.	.	.	.	.
16A\	.	16a\	.	16a/	.	16a/	.	.	.	.	.
16G\JJ	.	16g\JJ	.	16g/JJ)	.	16g/JJ)	.	.	.	.	.
!	!LO:DY:a:Bi:t=P&colon;	!	!	!	!	!	!	!	!	!	!
8F'\L	p	8f\L	.	4f/	.	4f/	.	.	.	.	.
8F'\J	.	8f\J	.	.	.	.	.	.	.	.	.
!	!	!	!LO:DY:a:Bi:t=Pia	!	!	!	!	!	!	!	!
8F'\L	.	8f\L	p	2r	.	2r	.	.	.	.	.
8F'\	.	8f\	.	.	.	.	.	.	.	.	.
8F'\	.	8f\	.	.	.	.	.	.	.	.	.
8F'\J	.	8f\J	.	.	.	.	.	.	.	.	.
=3	=3	=3	=3	=3	=3	=3	=3	=3	=3	=3	=3
*tremolo	*	*	*	*	*	*	*	*	*	*	*
*	*	*tremolo	*	*	*	*	*	*	*	*	*
!	!	!	!	!	!LO:DY:a	!	!LO:DY:a	!	!	!	!LO:DY:a:Bi:t=p&colon;
8F\L	.	8f\L	.	4b-\	p	4dd\	p	1f_>	.	[1ff	p
8F\	.	8f\	.	.	.	.	.	.	.	.	.
8F\	.	8f\	.	(8.dd\L	.	(8.ff\L	.	.	.	.	.
8F\J	.	8f\J	.	.	.	.	.	.	.	.	.
.	.	.	.	16b-\Jk)	.	16dd\Jk)	.	.	.	.	.
.	.	.	.	.	.	8qqdd/	.	.	.	.	.
8F\L	.	8f\L	.	4a/	.	4cc\	.	.	.	.	.
8F\	.	8f\	.	.	.	.	.	.	.	.	.
8F\	.	8f\	.	4r	.	4r	.	.	.	.	.
8F\J	.	8f\J	.	.	.	.	.	.	.	.	.
=4	=4	=4	=4	=4	=4	=4	=4	=4	=4	=4	=4
8F\L	.	8f\L	.	4g/	.	4b-\	.	(1f]	.	1ff]	.
8F\	.	8f\	.	.	.	.	.	.	.	.	.
8F\	.	8f\	.	8.b-/L	.	8.dd\L	.	.	.	.	.
8F\J	.	8f\J	.	.	.	.	.	.	.	.	.
.	.	.	.	16g/Jk	.	16b-\Jk	.	.	.	.	.
8F\L	.	8f\L	.	4f/	.	4a/	.	.	.	.	.
8F\	.	8f\	.	.	.	.	.	.	.	.	.
8F\	.	8f\	.	4r	.	4r	.	.	.	.	.
8F\J	.	8f\J	.	.	.	.	.	.	.	.	.
*Xtremolo	*	*	*	*	*	*	*	*	*	*	*
=5	=5	=5	=5	=5	=5	=5	=5	=5	=5	=5	=5
*	*	*	*	*	*	*tremolo	*	*	*	*	*
!LO:TX:t=P:problem=mixed beam	!LO:DY:a:Bi:t=for	!	!	!	!LO:DY:a	!	!LO:DY:a	!	!LO:DY:a	!	!
8C/L	f	8e\L	.	16g/LL	f	16bb-\LL	f	[1cc)	f	1bb-	.
.	.	.	.	16b-/	.	16bb-\	.	.	.	.	.
8c\	.	8e\	.	16g/	.	16bb-\	.	.	.	.	.
.	.	.	.	16b-/JJ	.	16bb-\JJ	.	.	.	.	.
8C/	.	8e\	.	16g/LL	.	16gg\LL	.	.	.	.	.
.	.	.	.	16b-/	.	16gg\	.	.	.	.	.
8c\J	.	8e\J	.	16g/	.	16gg\	.	.	.	.	.
.	.	.	.	16b-/JJ	.	16gg\JJ	.	.	.	.	.
!LO:TX:t=P:problem=mixed beam	!	!	!	!	!	!	!	!	!	!	!
8C/L	.	8e\L	.	16g/LL	.	16ee\LL	.	.	.	.	.
.	.	.	.	16b-/	.	16ee\	.	.	.	.	.
8c\	.	8e\	.	16g/	.	16ee\	.	.	.	.	.
.	.	.	.	16b-/JJ	.	16ee\JJ	.	.	.	.	.
8C/	.	8e\	.	16g/LL	.	16cc\LL	.	.	.	.	.
.	.	.	.	16b-/	.	16cc\	.	.	.	.	.
8c\J	.	8e\J	.	16g/	.	16cc\	.	.	.	.	.
.	.	.	.	16b-/JJ	.	16cc\JJ	.	.	.	.	.
=6	=6	=6	=6	=6	=6	=6	=6	=6	=6	=6	=6
!LO:TX:t=P:problem=mixed beam	!	!	!	!LO:TX:t=P:problem=takt zapisany repetycją	!	!	!	!	!	!	!
8C/L	.	8e\L	.	16g/LLyy	.	16b-\LL	.	2cc\]	.	1bb-	.
.	.	.	.	16b-/yy	.	16b-\	.	.	.	.	.
8c\	.	8e\	.	16g/yy	.	16b-\	.	.	.	.	.
.	.	.	.	16b-/JJyy	.	16b-\JJ	.	.	.	.	.
8C/	.	8e\	.	16g/LLyy	.	16g/LL	.	.	.	.	.
.	.	.	.	16b-/yy	.	16g/	.	.	.	.	.
8c\J	.	8e\J	.	16g/yy	.	16g/	.	.	.	.	.
.	.	.	.	16b-/JJyy	.	16g/JJ	.	.	.	.	.
!LO:TX:t=P:problem=mixed beam	!	!	!	!	!	!	!	!	!	!	!
8C/L	.	8e\L	.	16g/LLyy	.	16e/LL	.	2ee\	.	.	.
.	.	.	.	16b-/yy	.	16e/	.	.	.	.	.
8c\	.	8e\	.	16g/yy	.	16e/	.	.	.	.	.
.	.	.	.	16b-/JJyy	.	16e/JJ	.	.	.	.	.
8C/	.	8e\	.	16g/LLyy	.	16c/LL	.	.	.	.	.
.	.	.	.	16b-/yy	.	16c/	.	.	.	.	.
8c\J	.	8e\J	.	16g/yy	.	16c/	.	.	.	.	.
.	.	.	.	16b-/JJyy	.	16c/JJ	.	.	.	.	.
*	*	*Xtremolo	*	*	*	*Xtremolo	*	*	*	*	*
=7	=7	=7	=7	=7	=7	=7	=7	=7	=7	=7	=7
!	!	!	!LO:DY:a:Bi:t=f&colon;	!	!	!	!	!	!	!	!LO:DY:a
2F\	.	2f\	f	2ff 2cc 2f/	.	2ff 2cc 2f/	.	2ff\	.	2ff\	f
4.c\	.	4.cc\	.	4.cc\	.	4.cc\	.	4.cc\	.	4.cc\	.
8A\	.	8a\	.	8a\	.	8a/	.	8a\	.	8a\	.
=8	=8	=8	=8	=8	=8	=8	=8	=8	=8	=8	=8
!	!	!	!	!	!	!	!	!	!LO:DY:a:Bi:t=p&colon;	!	!
16F\LL	.	16f\LL	.	(16f/LL	.	(16f/LL	.	1f	p	1f	.
16G\	.	16g\	.	16g/	.	16g/	.	.	.	.	.
16A\	.	16a\	.	16a/	.	16a/	.	.	.	.	.
16G\JJ	.	16g\JJ	.	16g/JJ)	.	16g/JJ)	.	.	.	.	.
!	!LO:DY:a:Bi:t=P&colon;	!	!	!	!	!	!	!	!	!	!
8F'\L	p	8f\L	.	4f/	.	4f/	.	.	.	.	.
8F'\J	.	8f\J	.	.	.	.	.	.	.	.	.
*	*	*tremolo	*	*	*	*	*	*	*	*	*
!	!	!	!LO:DY:a:Bi:t=P&colon;	!	!	!	!	!	!	!	!
8F'\L	.	8f\L	p	2r	.	2r	.	.	.	.	.
8F'\	.	8f\	.	.	.	.	.	.	.	.	.
8F'\	.	8f\	.	.	.	.	.	.	.	.	.
8F'\J	.	8f\J	.	.	.	.	.	.	.	.	.
=9	=9	=9	=9	=9	=9	=9	=9	=9	=9	=9	=9
*tremolo	*	*	*	*	*	*	*	*	*	*	*
!	!	!	!	!	!LO:DY:a	!	!LO:DY:a:Bi:t=p&colon;	!	!	!	!LO:DY:a
8F\L	.	8f\L	.	4b-\	p	4dd\	p	1f	.	1ff	p
.	.	.	.	.	.	.	.	.	.	.	.
8F\	.	8f\	.	.	.	.	.	.	.	.	.
.	.	.	.	.	.	.	.	.	.	.	.
8F\	.	8f\	.	8.dd\L	.	(8.ff\L	.	.	.	.	.
.	.	.	.	.	.	.	.	.	.	.	.
8F\J	.	8f\J	.	.	.	.	.	.	.	.	.
.	.	.	.	16b-\Jk	.	16dd\Jk)	.	.	.	.	.
.	.	.	.	.	.	8qqdd/	.	.	.	.	.
8F\L	.	8f\L	.	4a/	.	4cc\	.	.	.	.	.
.	.	.	.	.	.	.	.	.	.	.	.
8F\	.	8f\	.	.	.	.	.	.	.	.	.
.	.	.	.	.	.	.	.	.	.	.	.
8F\	.	8f\	.	4r	.	4r	.	.	.	.	.
.	.	.	.	.	.	.	.	.	.	.	.
8F\J	.	8f\J	.	.	.	.	.	.	.	.	.
.	.	.	.	.	.	.	.	.	.	.	.
!LO:LB:g=original	!	!	!	!	!	!	!	!	!	!	!
=10	=10	=10	=10	=10	=10	=10	=10	=10	=10	=10	=10
8F\L	.	8f\L	.	4g/	.	4b-\	.	2f/	.	2ff\	.
.	.	.	.	.	.	.	.	.	.	.	.
8F\	.	8f\	.	.	.	.	.	.	.	.	.
.	.	.	.	.	.	.	.	.	.	.	.
8F\	.	8f\	.	8.b-/L	.	(8.dd\L	.	.	.	.	.
.	.	.	.	.	.	.	.	.	.	.	.
8F\J	.	8f\J	.	.	.	.	.	.	.	.	.
.	.	.	.	16g/Jk	.	16b-\Jk)	.	.	.	.	.
!	!	!	!	!LO:LB:g=original	!	!	!	!	!	!	!
8F\L	.	8f\L	.	4f/	.	4a/	.	2r	.	2r	.
.	.	.	.	.	.	.	.	.	.	.	.
8F\	.	8f\	.	.	.	.	.	.	.	.	.
.	.	.	.	.	.	.	.	.	.	.	.
8F\	.	8f\	.	4r	.	4r	.	.	.	.	.
.	.	.	.	.	.	.	.	.	.	.	.
8F\J	.	8f\J	.	.	.	.	.	.	.	.	.
.	.	.	.	.	.	.	.	.	.	.	.
*Xtremolo	*	*	*	*	*	*	*	*	*	*	*
!	!	!LO:LB:g=original	!	!	!	!LO:LB:g=original	!	!	!	!	!
=11	=11	=11	=11	=11	=11	=11	=11	=11	=11	=11	=11
*	*	*	*	*	*	*tremolo	*	*	*	*	*
!LO:TX:t=P:problem=mixed beam	!LO:DY:a:Bi:t=f&colon;	!LO:TX:t=P:problem=jeden wykreślony takt	!	!	!	!	!LO:DY:a	!	!LO:DY:a	!	!LO:DY:a
8C/L	f	8e\L	.	16g/LL	.	16bb-\LL	f	1cc	f	1bb-	f
.	.	.	.	16b-/	.	16bb-\	.	.	.	.	.
8c\	.	8e\	.	16g/	.	16bb-\	.	.	.	.	.
.	.	.	.	16b-/JJ	.	16bb-\JJ	.	.	.	.	.
8C/	.	8e\	.	16g/LL	.	16gg\LL	.	.	.	.	.
.	.	.	.	16b-/	.	16gg\	.	.	.	.	.
8c\J	.	8e\J	.	16g/	.	16gg\	.	.	.	.	.
.	.	.	.	16b-/JJ	.	16gg\JJ	.	.	.	.	.
!LO:TX:t=P:problem=mixed beam	!	!	!	!	!	!	!	!	!	!	!
8C/L	.	8e\L	.	16g/LL	.	16ee\LL	.	.	.	.	.
.	.	.	.	16b-/	.	16ee\	.	.	.	.	.
8c\	.	8e\	.	16g/	.	16ee\	.	.	.	.	.
.	.	.	.	16b-/JJ	.	16ee\JJ	.	.	.	.	.
8C/	.	8e\	.	16g/LL	.	16cc\LL	.	.	.	.	.
.	.	.	.	16b-/	.	16cc\	.	.	.	.	.
8c\J	.	8e\J	.	16g/	.	16cc\	.	.	.	.	.
.	.	.	.	16b-/JJ	.	16cc\JJ	.	.	.	.	.
=12	=12	=12	=12	=12	=12	=12	=12	=12	=12	=12	=12
!LO:TX:t=P:problem=mixed beam	!	!	!	!LO:TX:t=P:problem=takt zapisany repetycją	!	!	!	!	!	!	!
8C/L	.	8e\L	.	16g/LLyy	.	16b-/LL	.	1cc	.	2bb-\	.
.	.	.	.	16b-/yy	.	16b-/	.	.	.	.	.
8c\	.	8e\	.	16g/yy	.	16b-/	.	.	.	.	.
.	.	.	.	16b-/JJyy	.	16b-/JJ	.	.	.	.	.
8C/	.	8e\	.	16g/LLyy	.	16g/LL	.	.	.	.	.
.	.	.	.	16b-/yy	.	16g/	.	.	.	.	.
8c\J	.	8e\J	.	16g/yy	.	16g/	.	.	.	.	.
.	.	.	.	16b-/JJyy	.	16g/JJ	.	.	.	.	.
!LO:TX:t=P:problem=mixed beam	!	!	!	!	!	!	!	!	!	!	!
8C/L	.	8e\L	.	16g/LLyy	.	16e/LL	.	.	.	2ee\	.
.	.	.	.	16b-/yy	.	16e/	.	.	.	.	.
8c\	.	8e\	.	16g/yy	.	16e/	.	.	.	.	.
.	.	.	.	16b-/JJyy	.	16e/JJ	.	.	.	.	.
8C/	.	8e\	.	16g/LLyy	.	16c/LL	.	.	.	.	.
.	.	.	.	16b-/yy	.	16c/	.	.	.	.	.
8c\J	.	8e\J	.	16g/yy	.	16c/	.	.	.	.	.
.	.	.	.	16b-/JJyy	.	16c/JJ	.	.	.	.	.
*	*	*Xtremolo	*	*	*	*Xtremolo	*	*	*	*	*
=13	=13	=13	=13	=13	=13	=13	=13	=13	=13	=13	=13
*tremolo	*	*	*	*	*	*	*	*	*	*	*
!	!	!	!	!	!	!	!LO:DY:a	!	!	!	!
8F\L	.	16f\LL	.	8a/	.	(16f/LL	p	4ff\	.	4ff\	.
.	.	16g\	.	.	.	16g/	.	.	.	.	.
8F\	.	16a\	.	8r	.	16a/	.	.	.	.	.
.	.	16g\JJ	.	.	.	16g/JJ)	.	.	.	.	.
8F\	.	4f\	.	4r	.	4f/	.	4r	.	4r	.
8F\J	.	.	.	.	.	.	.	.	.	.	.
8F\L	.	8e\	.	2r	.	8g/	.	2r	.	2r	.
8F\	.	8r	.	.	.	8r	.	.	.	.	.
8F\	.	8f\	.	.	.	8a/	.	.	.	.	.
8F\J	.	8r	.	.	.	8r	.	.	.	.	.
=14	=14	=14	=14	=14	=14	=14	=14	=14	=14	=14	=14
8F\L	.	(2g\	.	1r	.	(2b-\	.	1r	.	1r	.
8F\	.	.	.	.	.	.	.	.	.	.	.
8F\	.	.	.	.	.	.	.	.	.	.	.
8F\J	.	.	.	.	.	.	.	.	.	.	.
8F\L	.	8f\)	.	.	.	8a\)	.	.	.	.	.
8F\	.	8r	.	.	.	8r	.	.	.	.	.
8F\	.	8e\	.	.	.	8g/	.	.	.	.	.
8F\J	.	8r	.	.	.	8r	.	.	.	.	.
=15	=15	=15	=15	=15	=15	=15	=15	=15	=15	=15	=15
*	*	*tremolo	*	*	*	*	*	*	*	*	*
!	!	!	!	!	!	!	!	!	!LO:HP:a:t=crescendo	!	!LO:DY:a
8F\L	.	8f\L	.	(16f/LL	.	(16a\LL	.	[1ff	<	[1ff	p
.	.	.	.	16g/	.	16b-\	.	.	.	.	.
8F\	.	8f\	.	16a/	.	16cc\)	.	.	.	.	.
.	.	.	.	16g/JJ)	.	16b-\JJ	.	.	.	.	.
8F\	.	8f\	.	4f/	.	4a\	.	.	.	.	.
8F\J	.	8f\J	.	.	.	.	.	.	.	.	.
8F\L	.	8f\L	.	8g/	.	8b-\	.	.	.	.	.
8F\	.	8f\	.	8r	.	8r	.	.	.	.	.
8F\	.	8f\	.	8a/	.	8cc\	.	.	.	.	.
8F\J	.	8f\J	.	8r	.	8r	.	.	.	.	.
=16	=16	=16	=16	=16	=16	=16	=16	=16	=16	=16	=16
8F\L	.	8f\L	.	(2b-\	.	(2dd\	.	1ff_	.	1ff_	.
8F\	.	8f\	.	.	.	.	.	.	.	.	.
8F\	.	8f\	.	.	.	.	.	.	.	.	.
8F\J	.	8f\J	.	.	.	.	.	.	.	.	.
8F\L	.	8f\L	.	8a\)	.	8cc\)	.	.	.	.	.
8F\	.	8f\	.	8r	.	8r	.	.	.	.	.
8F\	.	8f\	.	8b-\	.	8ee\	.	.	.	.	.
8F\J	.	8f\J	.	8r	.	8r	.	.	.	.	.
=17	=17	=17	=17	=17	=17	=17	=17	=17	=17	=17	=17
!	!	!	!	!	!	!	!LO:HP:a:t=crescen	!	!	!	!LO:HP:t=crescendo
8F\L	.	8f\L	.	(16a\LL	.	(16ff\LL	<	1ff_	.	1ff_	<
.	.	.	.	16b-\	.	16gg\	.	.	.	.	.
8F\	.	8f\	.	16cc\)	.	16aa\	.	.	.	.	.
.	.	.	.	16b-\JJ	.	16gg\JJ)	.	.	.	.	.
!	!	!	!	!	!LO:HP:a:t=crescendo	!	!	!	!	!	!
8F\	.	8f\	.	4a\	<	4ff\	.	.	.	.	.
8F\J	.	8f\J	.	.	.	.	.	.	.	.	.
8F\L	.	8f\L	.	8ee\	.	8gg\	.	.	.	.	.
8F\	.	8f\	.	8r	.	8r	.	.	.	.	.
8F\	.	8f\	.	8ff\	.	8aa\	.	.	.	.	.
8F\J	.	8f\J	.	8r	.	8r	.	.	.	.	.
!	!	!	!	!	!	!LO:LB:g=original	!	!	!	!	!
=18	=18	=18	=18	=18	=18	=18	=18	=18	=18	=18	=18
8F\L	.	8f\L	.	(2gg\	.	(2bb-\	.	1ff_	.	1ff_	.
8F\	.	8f\	.	.	.	.	.	.	.	.	.
8F\	.	8f\	.	.	.	.	.	.	.	.	.
8F\J	.	8f\J	.	.	.	.	.	.	.	.	.
8F\L	.	8f\L	.	8ff\)	.	8aa\)	.	.	.	.	.
8F\	.	8f\	.	8r	.	8r	.	.	.	.	.
8F\	.	8f\	.	8ee\	.	8gg\	.	.	.	.	.
8F\J	.	8f\J	.	8r	.	8r	.	.	.	.	.
!	!	!	!	!LO:LB:g=original	!	!	!	!	!	!	!
=19	=19	=19	=19	=19	=19	=19	=19	=19	=19	=19	=19
8F\L	.	8f\L	.	16ff\LL	.	(16aa\LL	.	1ff]	.	1ff]	.
.	.	.	.	16gg\	.	16bb-\	.	.	.	.	.
8F\	.	8f\	.	16aa\	.	16ccc\	.	.	.	.	.
.	.	.	.	16gg\JJ	.	16bb-\JJ)	.	.	.	.	.
8F\	.	8f\	.	4ff\	.	4aa\	.	.	.	.	.
8F\J	.	8f\J	.	.	.	.	.	.	.	.	.
*	*	*Xtremolo	*	*	*	*	*	*	*	*	*
8F\L	.	2f\	.	8ff\	.	8aa\	.	.	.	.	.
8F\	.	.	.	8r	.	8r	.	.	.	.	.
8F\	.	.	.	8dd\	.	8bbn\	.	.	.	.	.
8F\J	.	.	.	8r	.	8r	.	.	.	.	.
*Xtremolo	*	*	*	*	*	*	*	*	*	*	*
!	!	!	!	!	!	!	!	!LO:LB:g=original	!	!	!
=20	=20	=20	=20	=20	=20	=20	=20	=20	=20	=20	=20
*	*	*	*	*tremolo	*	*	*	*	*	*	*
!	!LO:DY:a:Bi:t=f&colon;	!	!LO:DY:a:Bi:t=f&colon;.	!	!LO:DY:a	!	!LO:DY:a	!	!	!	!
8E\L	f	8e\L	f	16cc\LL	f	(16ccc\LL	f	00r	.	00r	.
.	.	.	.	16cc\	.	16bbn\	.	.	.	.	.
8c\	.	8cc\	.	16cc\	.	16ccc\	.	.	.	.	.
.	.	.	.	16cc\	.	16ddd\JJ)	.	.	.	.	.
8E\	.	8e\	.	16cc\	.	4ccc\	.	.	.	.	.
.	.	.	.	16cc\	.	.	.	.	.	.	.
8c\J	.	8cc\J	.	16cc\	.	.	.	.	.	.	.
.	.	.	.	16cc\JJ	.	.	.	.	.	.	.
8E\L	.	8e\L	.	16cc\LL	.	8r	.	.	.	.	.
.	.	.	.	16cc\	.	.	.	.	.	.	.
8c\	.	8cc\	.	16cc\	.	8ccc\L	.	.	.	.	.
.	.	.	.	16cc\	.	.	.	.	.	.	.
8E\	.	8e\	.	16cc\	.	8ccc\	.	.	.	.	.
.	.	.	.	16cc\	.	.	.	.	.	.	.
8c\J	.	8cc\J	.	16cc\	.	8ccc\J	.	.	.	.	.
.	.	.	.	16cc\JJ	.	.	.	.	.	.	.
!LO:LB:g=original	!	!	!	!	!	!	!	!	!	!	!
=21	=21	=21	=21	=21	=21	=21	=21	=21	=21	=21	=21
8F\L	.	8f\L	.	16cc\LL	.	(8ccc\L	.	.	.	.	.
.	.	.	.	16cc\	.	.	.	.	.	.	.
8c\	.	8cc\	.	16cc\	.	8dd\J)	.	.	.	.	.
.	.	.	.	16cc\	.	.	.	.	.	.	.
8F\	.	8f\	.	16cc\	.	4dd\	.	.	.	.	.
.	.	.	.	16cc\	.	.	.	.	.	.	.
8c\J	.	8cc\J	.	16cc\	.	.	.	.	.	.	.
.	.	.	.	16cc\JJ	.	.	.	.	.	.	.
!	!	!LO:LB:g=original	!	!	!	!	!	!	!	!	!
8F\L	.	8f\L	.	16cc\LL	.	2r	.	.	.	.	.
.	.	.	.	16cc\	.	.	.	.	.	.	.
8c\	.	8cc\	.	16cc\	.	.	.	.	.	.	.
.	.	.	.	16cc\	.	.	.	.	.	.	.
8F\	.	8f\	.	16cc\	.	.	.	.	.	.	.
.	.	.	.	16cc\	.	.	.	.	.	.	.
8c\J	.	8cc\J	.	16cc\	.	.	.	.	.	.	.
.	.	.	.	16cc\JJ	.	.	.	.	.	.	.
=22	=22	=22	=22	=22	=22	=22	=22	=22	=22	=22	=22
8G\L	.	8g\L	.	16cc\LL	.	(16ccc\LL	.	.	.	.	.
.	.	.	.	16cc\	.	16bbn\	.	.	.	.	.
8c\	.	8cc\	.	16cc\	.	16ccc\	.	.	.	.	.
.	.	.	.	16cc\	.	16ddd\JJ)	.	.	.	.	.
8G\	.	8g\	.	16cc\	.	4ccc\	.	.	.	.	.
.	.	.	.	16cc\	.	.	.	.	.	.	.
8c\J	.	8cc\J	.	16cc\	.	.	.	.	.	.	.
.	.	.	.	16cc\JJ	.	.	.	.	.	.	.
8G\L	.	8g\L	.	16cc\LL	.	8r	.	.	.	.	.
.	.	.	.	16cc\	.	.	.	.	.	.	.
8c\	.	8cc\	.	16cc\	.	8ccc\L	.	.	.	.	.
.	.	.	.	16cc\	.	.	.	.	.	.	.
8G\	.	8g\	.	16cc\	.	8ccc\	.	.	.	.	.
.	.	.	.	16cc\	.	.	.	.	.	.	.
8c\J	.	8cc\J	.	16cc\	.	8ccc\J	.	.	.	.	.
.	.	.	.	16cc\JJ	.	.	.	.	.	.	.
=23	=23	=23	=23	=23	=23	=23	=23	=23	=23	=23	=23
8A\L	.	8a\L	.	16cc\LL	.	8ccc\L	.	.	.	.	.
.	.	.	.	16cc\	.	.	.	.	.	.	.
8c\	.	8cc\	.	16cc\	.	8ff\J	.	.	.	.	.
.	.	.	.	16cc\	.	.	.	.	.	.	.
8A\	.	8a\	.	16cc\	.	2ff\	.	.	.	.	.
.	.	.	.	16cc\	.	.	.	.	.	.	.
8c\J	.	8cc\J	.	16cc\	.	.	.	.	.	.	.
.	.	.	.	16cc\JJ	.	.	.	.	.	.	.
8A\L	.	8a\L	.	16cc\LL	.	.	.	.	.	.	.
.	.	.	.	16cc\	.	.	.	.	.	.	.
8B-\	.	8cc\	.	16cc\	.	.	.	.	.	.	.
.	.	.	.	16cc\	.	.	.	.	.	.	.
8A\	.	8a\	.	16cc\	.	8.ee\L	.	.	.	.	.
.	.	.	.	16cc\	.	.	.	.	.	.	.
8c\J	.	8cc\J	.	16cc\	.	.	.	.	.	.	.
.	.	.	.	16cc\JJ	.	16dd\Jk	.	.	.	.	.
=24	=24	=24	=24	=24	=24	=24	=24	=24	=24	=24	=24
*	*	*	*	*	*	*tremolo	*	*	*	*	*
8F\L	.	8f\L	.	16cc\LL	.	16aa\LL	.	1r	.	1r	.
.	.	.	.	16cc\	.	16aa\	.	.	.	.	.
8c\	.	8cc\	.	16cc\	.	16aa\	.	.	.	.	.
.	.	.	.	16cc\	.	16aa\JJ	.	.	.	.	.
8F\	.	8f\	.	16cc\	.	16ff\LL	.	.	.	.	.
.	.	.	.	16cc\	.	16ff\	.	.	.	.	.
8c\J	.	8cc\J	.	16cc\	.	16ff\	.	.	.	.	.
.	.	.	.	16cc\JJ	.	16ff\JJ	.	.	.	.	.
8F\L	.	8f\L	.	16cc\LL	.	16dd\LL	.	.	.	.	.
.	.	.	.	16cc\	.	16dd\	.	.	.	.	.
8c\	.	8cc\	.	16cc\	.	16dd\	.	.	.	.	.
.	.	.	.	16cc\JJ	.	16dd\JJ	.	.	.	.	.
8F#X\	.	8f#X\	.	16a/LL	.	16cc\LL	.	.	.	.	.
.	.	.	.	16a/	.	16cc\	.	.	.	.	.
8c\J	.	8cc\J	.	16a/	.	16cc\	.	.	.	.	.
.	.	.	.	16a/JJ	.	16cc\JJ	.	.	.	.	.
*	*	*	*	*Xtremolo	*	*Xtremolo	*	*	*	*	*
=25	=25	=25	=25	=25	=25	=25	=25	=25	=25	=25	=25
*tremolo	*	*tremolo	*	*	*	*	*	*	*	*	*
!	!LO:DY:a:Bi:t=P&colon;	!	!	!	!	!	!	!	!LO:DY:a:Bi:t=p&colon;	!	!LO:DY:a
8G\L	p	8g\L	.	8g/L	.	8bn/L	.	[>1g	p	[1gg	p
8G\	.	8g\	.	(16f#X/L	.	16a/L	.	.	.	.	.
.	.	.	.	16g/JJ)	.	16g/JJ	.	.	.	.	.
8G\	.	8g\	.	4g/	.	4g/	.	.	.	.	.
8G\J	.	8g\J	.	.	.	.	.	.	.	.	.
8G\L	.	8g\L	.	2r	.	2r	.	.	.	.	.
8G\	.	8g\	.	.	.	.	.	.	.	.	.
8G\	.	8g\	.	.	.	.	.	.	.	.	.
8G\J	.	8g\J	.	.	.	.	.	.	.	.	.
!	!	!	!	!	!	!LO:LB:g=original	!	!	!	!	!
=26	=26	=26	=26	=26	=26	=26	=26	=26	=26	=26	=26
!	!	!	!	!	!LO:DY:a:Bi:t=p&colon;	!	!LO:DY:a	!	!	!	!
8G\L	.	8g\L	.	(16Bn/LL	p	16d/LL	p	1g_>	.	1gg_	.
.	.	.	.	16c/	.	(16e/	.	.	.	.	.
8G\	.	8g\	.	16d/	.	16f/	.	.	.	.	.
.	.	.	.	16c/JJ)	.	16e/JJ)	.	.	.	.	.
8G\	.	8g\	.	4B/	.	4d/	.	.	.	.	.
8G\J	.	8g\J	.	.	.	.	.	.	.	.	.
8G\L	.	8g\L	.	4r	.	4r	.	.	.	.	.
8G\	.	8g\	.	.	.	.	.	.	.	.	.
8G\	.	8g\	.	8c/L	.	8et/L	.	.	.	.	.
8G\J	.	8g\J	.	16B/L	.	16d/L	.	.	.	.	.
.	.	.	.	16c/JJ	.	16e/JJ	.	.	.	.	.
!	!	!	!	!LO:LB:g=original	!	!	!	!	!	!	!
=27	=27	=27	=27	=27	=27	=27	=27	=27	=27	=27	=27
.	.	.	.	8qqc/	.	8qqe/	.	.	.	.	.
8G\L	.	8g\L	.	2d/	.	2f/	.	1g_>	.	1gg_	.
8G\	.	8g\	.	.	.	.	.	.	.	.	.
8G\	.	8g\	.	.	.	.	.	.	.	.	.
8G\J	.	8g\J	.	.	.	.	.	.	.	.	.
8G\L	.	8g\L	.	2r	.	2r	.	.	.	.	.
8G\	.	8g\	.	.	.	.	.	.	.	.	.
8G\	.	8g\	.	.	.	.	.	.	.	.	.
8G\J	.	8g\J	.	.	.	.	.	.	.	.	.
!	!	!	!	!	!	!	!	!	!	!LO:LB:g=original	!
=28	=28	=28	=28	=28	=28	=28	=28	=28	=28	=28	=28
!	!	!	!	!	!	!	!	!	!	!LO:TX:t=P:problem=brak zakończenia ligatury	!
8G\L	.	8g\L	.	16d/LL	.	(16bn\LL	.	1g_>	.	1gg_	.
.	.	.	.	(16e/	.	16cc\	.	.	.	.	.
8G\	.	8g\	.	16f/	.	16dd\	.	.	.	.	.
.	.	.	.	16e/JJ)	.	16cc\JJ)	.	.	.	.	.
8G\	.	8g\	.	4d/	.	4b\	.	.	.	.	.
8G\J	.	8g\J	.	.	.	.	.	.	.	.	.
8G\L	.	8g\L	.	4r	.	4r	.	.	.	.	.
8G\	.	8g\	.	.	.	.	.	.	.	.	.
8G\	.	8g\	.	8et/L	.	8ccT\L	.	.	.	.	.
8G\J	.	8g\J	.	16d/L	.	16b\L	.	.	.	.	.
.	.	.	.	16e/JJ	.	16cc\JJ	.	.	.	.	.
=29	=29	=29	=29	=29	=29	=29	=29	=29	=29	=29	=29
.	.	.	.	8qqe/	.	8qqcc/	.	.	.	.	.
8G\L	.	8g\L	.	2f/	.	2dd\	.	1g_>	.	1gg_	.
8G\	.	8g\	.	.	.	.	.	.	.	.	.
8G\	.	8g\	.	.	.	.	.	.	.	.	.
8G\J	.	8g\J	.	.	.	.	.	.	.	.	.
8G\L	.	8g\L	.	2r	.	2r	.	.	.	.	.
8G\	.	8g\	.	.	.	.	.	.	.	.	.
8G\	.	8g\	.	.	.	.	.	.	.	.	.
8G\J	.	8g\J	.	.	.	.	.	.	.	.	.
=30	=30	=30	=30	=30	=30	=30	=30	=30	=30	=30	=30
8G\L	.	8g\L	.	16c/LL	.	(16e/LL	.	1g_>	.	1gg_	.
.	.	.	.	(16d/	.	16f/	.	.	.	.	.
8G\	.	8g\	.	16e/	.	16g/	.	.	.	.	.
.	.	.	.	16d/JJ)	.	16f/JJ)	.	.	.	.	.
8G\	.	8g\	.	4c/	.	4e/	.	.	.	.	.
8G\J	.	8g\J	.	.	.	.	.	.	.	.	.
8G\L	.	8g\L	.	4r	.	4r	.	.	.	.	.
8G\	.	8g\	.	.	.	.	.	.	.	.	.
8G\	.	8g\	.	8d/L	.	8fT/L	.	.	.	.	.
8G\J	.	8g\J	.	(16c/L	.	16e/L	.	.	.	.	.
.	.	.	.	16d/JJ)	.	16f/JJ	.	.	.	.	.
=31	=31	=31	=31	=31	=31	=31	=31	=31	=31	=31	=31
.	.	.	.	8qqd/	.	.	.	.	.	.	.
8G\L	.	8g\L	.	2e/	.	2g/	.	1g_>	.	1gg_	.
8G\	.	8g\	.	.	.	.	.	.	.	.	.
8G\	.	8g\	.	.	.	.	.	.	.	.	.
8G\J	.	8g\J	.	.	.	.	.	.	.	.	.
8G\L	.	8g\L	.	2r	.	2r	.	.	.	.	.
8G\	.	8g\	.	.	.	.	.	.	.	.	.
8G\	.	8g\	.	.	.	.	.	.	.	.	.
8G\J	.	8g\J	.	.	.	.	.	.	.	.	.
!LO:LB:g=Original	!	!LO:LB:g=original	!	!	!	!	!	!	!	!	!
=32	=32	=32	=32	=32	=32	=32	=32	=32	=32	=32	=32
8G\L	.	8g\L	.	(16e/LL	.	(16cc\LL	.	1g_>	.	1gg_	.
.	.	.	.	16f/	.	16dd\	.	.	.	.	.
8G\	.	8g\	.	16g/	.	16ee\	.	.	.	.	.
.	.	.	.	16f/JJ)	.	16dd\JJ)	.	.	.	.	.
8G\	.	8g\	.	4e/	.	4cc\	.	.	.	.	.
8G\J	.	8g\J	.	.	.	.	.	.	.	.	.
8G\L	.	8g\L	.	4r	.	4r	.	.	.	.	.
8G\	.	8g\	.	.	.	.	.	.	.	.	.
8G\	.	8g\	.	8.fT/L	.	8ddT\L	.	.	.	.	.
8G\J	.	8g\J	.	.	.	16cc\L	.	.	.	.	.
.	.	.	.	32e/LL	.	16dd\JJ	.	.	.	.	.
.	.	.	.	32f/JJJ	.	.	.	.	.	.	.
=33	=33	=33	=33	=33	=33	=33	=33	=33	=33	=33	=33
.	.	.	.	8qqf/	.	8qqdd/	.	.	.	.	.
8G\L	.	8g\L	.	2g/	.	2ee\	.	1g]	.	1gg]	.
8G\	.	8g\	.	.	.	.	.	.	.	.	.
8G\	.	8g\	.	.	.	.	.	.	.	.	.
8G\J	.	8g\J	.	.	.	.	.	.	.	.	.
8G\L	.	8g\L	.	2r	.	2r	.	.	.	.	.
8G\	.	8g\	.	.	.	.	.	.	.	.	.
8G\	.	8g\	.	.	.	.	.	.	.	.	.
8G\J	.	8g\J	.	.	.	.	.	.	.	.	.
=34	=34	=34	=34	=34	=34	=34	=34	=34	=34	=34	=34
!	!	!	!	!	!	!	!LO:HP:a:t=crescendo	!	!	!	!
8G\L	.	8g\L	.	(16bn\LL	.	16dd\LL	<	0r	.	0r	.
.	.	.	.	16cc\	.	16ee\	.	.	.	.	.
8G\	.	8g\	.	16dd\	.	16ff\	.	.	.	.	.
.	.	.	.	16cc\JJ)	.	16ee\JJ	.	.	.	.	.
8G\	.	8g\	.	4b\	.	4dd\	.	.	.	.	.
8G\J	.	8g\J	.	.	.	.	.	.	.	.	.
8G\L	.	8g\L	.	4r	.	4r	.	.	.	.	.
8G\	.	8g\	.	.	.	.	.	.	.	.	.
8G\	.	8g\	.	8cc\	.	8ee\	.	.	.	.	.
8G\J	.	8g\J	.	8r	.	8r	.	.	.	.	.
*	*	*Xtremolo	*	*	*	*	*	*	*	*	*
!	!	!	!	!	!	!LO:LB:g=original	!	!	!	!	!
=35	=35	=35	=35	=35	=35	=35	=35	=35	=35	=35	=35
!	!	!	!	!	!	!	!LO:DY:a:Bi:t=for	!	!	!	!
8G\L	.	8bn\L	.	16dd\LL	.	16ff\LL	f	.	.	.	.
.	.	.	.	(16ee\	.	16gg\	.	.	.	.	.
8G\	.	8b\	.	16ff\	.	16aa\	.	.	.	.	.
.	.	.	.	16ee\JJ)	.	16gg\JJ	.	.	.	.	.
8G\	.	8b\	.	4dd\	.	4ff\	.	.	.	.	.
8G\J	.	8b\J	.	.	.	.	.	.	.	.	.
*Xtremolo	*	*	*	*	*	*	*	*	*	*	*
!	!	!	!	!LO:LB:g=original	!	!	!	!	!	!	!
8G\L	.	8b\L	.	4r	.	4r	.	.	.	.	.
8G\	.	8b\J	.	.	.	.	.	.	.	.	.
8F\	.	8dd\L	.	8r	.	8bbn\	.	.	.	.	.
8F\J	.	8dd\J	.	8dd\	.	8r	.	.	.	.	.
=36	=36	=36	=36	=36	=36	=36	=36	=36	=36	=36	=36
!	!	!	!	!	!LO:DY:a	!	!	!	!	!	!
8E\L	.	8cc\L	.	16ee\LL	f	(16ccc\LL	.	[1cc	.	[1cc	.
.	.	.	.	16cc\	.	16bbn\	.	.	.	.	.
8c\	.	8cc\	.	16cc\	.	16ccc\)	.	.	.	.	.
.	.	.	.	16cc\JJ	.	16ddd\JJ	.	.	.	.	.
*	*	*	*	*tremolo	*	*	*	*	*	*	*
8E\	.	8e\	.	16cc\LL	.	2ccc\	.	.	.	.	.
.	.	.	.	16cc\	.	.	.	.	.	.	.
8c\J	.	8cc\J	.	16cc\	.	.	.	.	.	.	.
.	.	.	.	16cc\	.	.	.	.	.	.	.
8E\L	.	8e\L	.	16cc\	.	.	.	.	.	.	.
.	.	.	.	16cc\	.	.	.	.	.	.	.
8c\	.	8cc\	.	16cc\	.	.	.	.	.	.	.
.	.	.	.	16cc\JJ	.	.	.	.	.	.	.
8E\	.	8e\	.	16cc\LL	.	8.ccc\L	.	.	.	.	.
.	.	.	.	16cc\	.	.	.	.	.	.	.
8c\J	.	8cc\J	.	16cc\	.	.	.	.	.	.	.
.	.	.	.	16cc\JJ	.	16gg\Jk	.	.	.	.	.
=37	=37	=37	=37	=37	=37	=37	=37	=37	=37	=37	=37
.	.	.	.	.	.	8qqgg#X/	.	.	.	.	.
8F\L	.	8f\L	.	16cc\LL	.	2.aa\	.	1cc_	.	1cc]	.
.	.	.	.	16cc\	.	.	.	.	.	.	.
8c\	.	8cc\	.	16cc\	.	.	.	.	.	.	.
.	.	.	.	16cc\	.	.	.	.	.	.	.
8F\	.	8f\	.	16cc\	.	.	.	.	.	.	.
.	.	.	.	16cc\	.	.	.	.	.	.	.
8c\J	.	8cc\J	.	16cc\	.	.	.	.	.	.	.
.	.	.	.	16cc\JJ	.	.	.	.	.	.	.
8F\L	.	8f\L	.	16cc\LL	.	.	.	.	.	.	.
.	.	.	.	16cc\	.	.	.	.	.	.	.
8c\	.	8cc\	.	16cc\	.	.	.	.	.	.	.
.	.	.	.	16cc\	.	.	.	.	.	.	.
!	!	!	!	!	!	!LO:SIC:v:s=8.ggnt\L	!	!	!	!	!
8F\	.	8f\	.	16cc\	.	8.gg#yt\L	.	.	.	.	.
.	.	.	.	16cc\	.	.	.	.	.	.	.
8c\J	.	8cc\J	.	16cc\	.	.	.	.	.	.	.
.	.	.	.	16cc\JJ	.	16ff\Jk	.	.	.	.	.
=38	=38	=38	=38	=38	=38	=38	=38	=38	=38	=38	=38
8G\L	.	8g\L	.	16cc\LL	.	(4ee\	.	2cc\]	.	4ee\	.
.	.	.	.	16cc\	.	.	.	.	.	.	.
8c\	.	8cc\	.	16cc\	.	.	.	.	.	.	.
.	.	.	.	16cc\	.	.	.	.	.	.	.
8G\	.	8g\	.	16cc\	.	8.gg\L)	.	.	.	8.gg\L	.
.	.	.	.	16cc\	.	.	.	.	.	.	.
8c\J	.	8cc\J	.	16cc\	.	.	.	.	.	.	.
.	.	.	.	16cc\JJ	.	16cc\Jk	.	.	.	16cc\Jk	.
8G\L	.	8g\L	.	16g/LL	.	4g/	.	4g/	.	4g/	.
.	.	.	.	16g/	.	.	.	.	.	.	.
8c\	.	8cc\	.	16g/	.	.	.	.	.	.	.
.	.	.	.	16g/JJ	.	.	.	.	.	.	.
8G\	.	8g\	.	16f/LL	.	4ddT\	.	4f/	.	4ddT\	.
.	.	.	.	16f/	.	.	.	.	.	.	.
8Bn\J	.	8bn\J	.	16f/	.	.	.	.	.	.	.
.	.	.	.	16f/JJ	.	.	.	.	.	.	.
*	*	*	*	*Xtremolo	*	*	*	*	*	*	*
=39	=39	=39	=39	=39	=39	=39	=39	=39	=39	=39	=39
!	!	!	!	!	!	!LO:TX:t=P:problem=t. 39-41 zapisane repetycją	!	!	!	!	!
8C\L	.	8g\L	.	16e/LL	.	(y16ccc\LLyy	.	4e/	.	4cc\	.
.	.	.	.	16cc/	.	16bbn\yy	.	.	.	.	.
8c\	.	8g\	.	16cc/	.	16ccc\)yy	.	.	.	.	.
.	.	.	.	16cc/JJ	.	16ddd\JJyy	.	.	.	.	.
*	*	*	*	*tremolo	*	*	*	*	*	*	*
8E\	.	8e\	.	16cc\LL	.	2ccc\yy	.	4r	.	4r	.
.	.	.	.	16cc\	.	.	.	.	.	.	.
8c\J	.	8cc\J	.	16cc\	.	.	.	.	.	.	.
.	.	.	.	16cc\JJ	.	.	.	.	.	.	.
8E\L	.	8e\L	.	16cc\LL	.	.	.	[2cc\	.	[2cc\	.
.	.	.	.	16cc\	.	.	.	.	.	.	.
8c\	.	8cc\	.	16cc\	.	.	.	.	.	.	.
.	.	.	.	16cc\JJ	.	.	.	.	.	.	.
8E\	.	8e\	.	16cc\LL	.	8.ccc\Lyy	.	.	.	.	.
.	.	.	.	16cc\	.	.	.	.	.	.	.
8c\J	.	8cc\J	.	16cc\	.	.	.	.	.	.	.
.	.	.	.	16cc\JJ	.	16gg\Jkyy	.	.	.	.	.
=40	=40	=40	=40	=40	=40	=40	=40	=40	=40	=40	=40
.	.	.	.	.	.	8qqgg#X/yy	.	.	.	.	.
8F\L	.	8f\L	.	16cc\LL	.	2.aa\yy	.	1cc]	.	1cc]	.
.	.	.	.	16cc\	.	.	.	.	.	.	.
8c\	.	8cc\	.	16cc\	.	.	.	.	.	.	.
.	.	.	.	16cc\	.	.	.	.	.	.	.
8F\	.	8f\	.	16cc\	.	.	.	.	.	.	.
.	.	.	.	16cc\	.	.	.	.	.	.	.
8c\J	.	8cc\J	.	16cc\	.	.	.	.	.	.	.
.	.	.	.	16cc\JJ	.	.	.	.	.	.	.
!	!	!LO:LB:g=original	!	!	!	!	!	!	!	!	!
8F\L	.	8f\L	.	16cc\LL	.	.	.	.	.	.	.
.	.	.	.	16cc\	.	.	.	.	.	.	.
8c\	.	8cc\	.	16cc\	.	.	.	.	.	.	.
.	.	.	.	16cc\	.	.	.	.	.	.	.
!	!	!	!	!	!	!LO:SIC:v:s=8.ggnt\Lyy	!	!	!	!	!
8F\	.	8f\	.	16cc\	.	8.gg#yt\Lyy	.	.	.	.	.
.	.	.	.	16cc\	.	.	.	.	.	.	.
8c\J	.	8cc\J	.	16cc\	.	.	.	.	.	.	.
.	.	.	.	16cc\JJ	.	16ff\Jkyy	.	.	.	.	.
!LO:LB:g=original	!	!	!	!	!	!	!	!	!	!	!
=41	=41	=41	=41	=41	=41	=41	=41	=41	=41	=41	=41
8G\L	.	8g\L	.	16cc\LL	.	(y4ee\yy	.	2cc\	.	4ee\	.
.	.	.	.	16cc\	.	.	.	.	.	.	.
8c\	.	8cc\	.	16cc\	.	.	.	.	.	.	.
.	.	.	.	16cc\	.	.	.	.	.	.	.
8G\	.	8g\	.	16cc\	.	8.gg\L)yy	.	.	.	8.gg\L	.
.	.	.	.	16cc\	.	.	.	.	.	.	.
8c\J	.	8cc\J	.	16cc\	.	.	.	.	.	.	.
.	.	.	.	16cc\JJ	.	16cc\Jkyy	.	.	.	16ee\Jk	.
8G\L	.	8g\L	.	16g/LL	.	4g/yy	.	4g/	.	4g/	.
.	.	.	.	16g/	.	.	.	.	.	.	.
8c\	.	8cc\	.	16g/	.	.	.	.	.	.	.
.	.	.	.	16g/JJ	.	.	.	.	.	.	.
8G\	.	8bn\	.	16f/LL	.	4ddT\yy	.	4f/	.	4ddT\	.
.	.	.	.	16f/	.	.	.	.	.	.	.
8Bn\J	.	8g\J	.	16f/	.	.	.	.	.	.	.
.	.	.	.	16f/JJ	.	.	.	.	.	.	.
*	*	*	*	*Xtremolo	*	*	*	*	*	*	*
=42	=42	=42	=42	=42	=42	=42	=42	=42	=42	=42	=42
4C/	.	4g\	.	4e/	.	4cc\	.	4e/	.	4cc\	.
4c\	.	4g\	.	4cc 4e 4G/	.	4cc 4e 4G/	.	4e/	.	4cc\	.
2C/	.	2g\	.	2cc 2e 2G/	.	2cc 2e 2G/	.	2e/	.	2cc\	.
=43:|!|:;	=43:|!|:	=43:|!|:;	=43:|!|:	=43:|!|:;	=43:|!|:	=43:|!|:;	=43:|!|:	=43:|!|:;	=43:|!|:	=43:|!|:;	=43:|!|:
2c\	.	2cc\	.	2cc 2e 2G/	.	2cc 2e 2G/	.	2cc\	.	2ccc\	.
!	!	!	!	!	!	!	!	!LO:LB:g=original	!	!	!
4.G\	.	4.g\	.	4.g/	.	4.g/	.	4.g/	.	4.gg\	.
8E\	.	8e\	.	8e/	.	8e/	.	8e/	.	8ee\	.
!	!	!	!	!LO:LB:g=original	!	!	!	!	!	!	!
=44	=44	=44	=44	=44	=44	=44	=44	=44	=44	=44	=44
!	!	!	!	!	!	!	!	!	!LO:DY:a:Bi:t=p&colon;	!	!LO:DY:a:Bi:t=p&colon;
(16C/LL	.	(16c\LL	.	(16c/LL	.	(16c/LL	.	1c	p	1cc	p
16D/	.	16d\	.	16d/	.	16d/	.	.	.	.	.
16E/)	.	16e\)	.	16e/	.	16e/	.	.	.	.	.
16D'/JJ	.	16d\JJ	.	16d/JJ)	.	16d/JJ)	.	.	.	.	.
!	!LO:DY:a:Bi:t=P&colon;	!	!	!	!	!	!	!	!	!	!
8C/L	p	8c\L	.	4c/	.	4c/	.	.	.	.	.
8C/J	.	8c\J	.	.	.	.	.	.	.	.	.
*tremolo	*	*	*	*	*	*	*	*	*	*	*
8C/L	.	8c\L	.	2r	.	2r	.	.	.	.	.
8C/	.	8c\	.	.	.	.	.	.	.	.	.
8C/	.	8c\	.	.	.	.	.	.	.	.	.
8C/J	.	8c\J	.	.	.	.	.	.	.	.	.
=45	=45	=45	=45	=45	=45	=45	=45	=45	=45	=45	=45
*	*	*tremolo	*	*	*	*	*	*	*	*	*
!	!	!	!	!	!LO:DY:a	!	!LO:DY:a:Bi:t=p&colon;	!	!	!	!
8C/L	.	8c\L	.	4ff\	p	4aa\	p	[1cc	.	(1aa	.
8C/	.	8c\	.	.	.	.	.	.	.	.	.
8C/	.	8c\	.	(8.aa\L	.	(8.ccc\L	.	.	.	.	.
8C/J	.	8c\J	.	.	.	.	.	.	.	.	.
.	.	.	.	16ff\Jk)	.	16aa\Jk)	.	.	.	.	.
8C/L	.	8c\L	.	4ee\	.	4gg\	.	.	.	.	.
8C/	.	8c\	.	.	.	.	.	.	.	.	.
8C/	.	8c\	.	4r	.	4r	.	.	.	.	.
8C/J	.	8c\J	.	.	.	.	.	.	.	.	.
=46	=46	=46	=46	=46	=46	=46	=46	=46	=46	=46	=46
8C/L	.	8c/L	.	4dd\	.	4ff\	.	1cc]	.	2ccc\)	.
8C/	.	8c/	.	.	.	.	.	.	.	.	.
8C/	.	8c/	.	(8.ff\L	.	8.aa\L	.	.	.	.	.
8C/J	.	8c/J	.	.	.	.	.	.	.	.	.
.	.	.	.	16dd\Jk)	.	16ff\Jk	.	.	.	.	.
8C/L	.	8c/L	.	4cc\	.	4ee\	.	.	.	2ee\	.
8C/	.	8c/	.	.	.	.	.	.	.	.	.
8C/	.	8c/	.	4r	.	4r	.	.	.	.	.
8C/J	.	8c/J	.	.	.	.	.	.	.	.	.
*Xtremolo	*	*	*	*	*	*	*	*	*	*	*
!	!	!	!	!	!	!LO:LB:g=original	!	!	!	!	!
=47	=47	=47	=47	=47	=47	=47	=47	=47	=47	=47	=47
*	*	*	*	*	*	*tremolo	*	*	*	*	*
!LO:TX:t=P:problem=mixed beam	!LO:DY:a:Bi:t=f&colon;	!	!	!	!LO:DY:a	!	!LO:DY:a	!	!LO:DY:a:Bi:t=f&colon;	!	!LO:DY:a
8GG/L	f	8Bn/L	.	16dd\LL	f	16ff\LL	f	1dd	f	1ff	f
.	.	.	.	16ff\	.	16ff\	.	.	.	.	.
8G\	.	8Bn/	.	16dd\	.	16ff\	.	.	.	.	.
.	.	.	.	16ff\JJ	.	16ff\JJ	.	.	.	.	.
8GG/	.	8Bn/	.	16dd\LL	.	16dd\LL	.	.	.	.	.
.	.	.	.	16ff\	.	16dd\	.	.	.	.	.
8G\J	.	8Bn/J	.	16dd\	.	16dd\	.	.	.	.	.
.	.	.	.	16ff\JJ	.	16dd\JJ	.	.	.	.	.
!LO:TX:t=P:problem=mixed beam	!	!	!	!	!	!	!	!	!	!	!
8GG/L	.	8B/L	.	16dd\LL	.	16bn/LL	.	.	.	.	.
.	.	.	.	16ff\	.	16bn/	.	.	.	.	.
8G\	.	8B/	.	16dd\	.	16bn/	.	.	.	.	.
.	.	.	.	16ff\JJ	.	16bn/JJ	.	.	.	.	.
8GG/	.	8B/	.	16dd\LL	.	16g/LL	.	.	.	.	.
.	.	.	.	16ff\	.	16g/	.	.	.	.	.
8G\J	.	8B/J	.	16dd\	.	16g/	.	.	.	.	.
.	.	.	.	16ff\JJ	.	16g/JJ	.	.	.	.	.
!	!	!	!	!	!	!	!	!	!	!LO:LB:g=original	!
=48	=48	=48	=48	=48	=48	=48	=48	=48	=48	=48	=48
!LO:TX:t=P:problem=mixed beam	!	!LO:SIC:v:s=8Bn/L	!	!LO:TX:t=P:problem=takt zapisany repetycją	!	!	!	!	!	!	!
8GG/L	.	8B-/L	.	16dd\LLyy	.	16f/LL	.	2dd\	.	2ff\	.
.	.	.	.	16ff\yy	.	16f/	.	.	.	.	.
!	!	!LO:SIC:v:s=8Bn/	!	!	!	!	!	!	!	!	!
8G\	.	8B-/	.	16dd\yy	.	16f/	.	.	.	.	.
.	.	.	.	16ff\JJyy	.	16f/JJ	.	.	.	.	.
!	!	!LO:SIC:v:s=8Bn/	!	!	!	!	!	!	!	!	!
8GG/	.	8B-/	.	16dd\LLyy	.	16d/LL	.	.	.	.	.
.	.	.	.	16ff\yy	.	16d/	.	.	.	.	.
!	!	!LO:SIC:v:s=8Bn/	!	!	!	!	!	!	!	!	!
8G\J	.	8B-/J	.	16dd\yy	.	16d/	.	.	.	.	.
.	.	.	.	16ff\JJyy	.	16d/JJ	.	.	.	.	.
!LO:TX:t=P:problem=mixed beam	!	!LO:SIC:v:s=8Bn/L	!	!	!	!	!	!	!	!	!
8GG/L	.	8B-/L	.	16dd\LLyy	.	16Bn/LL	.	2r	.	2r	.
.	.	.	.	16ff\yy	.	16Bn/	.	.	.	.	.
!	!	!LO:SIC:v:s=8Bn/	!	!	!	!	!	!	!	!	!
8G\	.	8B-/	.	16dd\yy	.	16Bn/	.	.	.	.	.
.	.	.	.	16ff\JJyy	.	16Bn/JJ	.	.	.	.	.
!	!	!LO:SIC:v:s=8Bn/	!	!	!	!	!	!	!	!	!
8GG/	.	8B-/	.	16dd\LLyy	.	16G/LL	.	.	.	.	.
.	.	.	.	16ff\yy	.	16G/	.	.	.	.	.
!	!	!LO:SIC:v:s=8Bn/J	!	!	!	!	!	!	!	!	!
8G\J	.	8B-/J	.	16dd\yy	.	16G/	.	.	.	.	.
!	!	!	!	!	!	!	!	!	!	!	!
.	.	.	.	16ff\JJyy	.	16G/JJ	.	.	.	.	.
*	*	*Xtremolo	*	*	*	*Xtremolo	*	*	*	*	*
=49	=49	=49	=49	=49	=49	=49	=49	=49	=49	=49	=49
*tremolo	*	*	*	*	*	*	*	*	*	*	*
!	!LO:DY:a:Bi:t=P&colon;	!	!	!	!	!	!LO:DY:a:Bi:t=p&colon;	!	!	!	!LO:DY:b:Bi:t=pia
8C/L	p	(16c\LL	.	8ee\	.	16c/LL	p	[1cc	.	[1ccc	p
.	.	16d\	.	.	.	(16d/	.	.	.	.	.
8C/	.	16e\	.	8r	.	16e/	.	.	.	.	.
.	.	16d\JJ)	.	.	.	16d/JJ)	.	.	.	.	.
8C/	.	4c\	.	4r	.	8c/	.	.	.	.	.
8C/J	.	.	.	.	.	8r	.	.	.	.	.
8C/L	.	8Bn\	.	2r	.	8d/	.	.	.	.	.
8C/	.	8r	.	.	.	8r	.	.	.	.	.
!	!	!LO:LB:g=original	!	!	!	!	!	!	!	!	!
8C/	.	8c\	.	.	.	8e/	.	.	.	.	.
8C/J	.	8r	.	.	.	8r	.	.	.	.	.
=50	=50	=50	=50	=50	=50	=50	=50	=50	=50	=50	=50
8C/L	.	(2d\	.	1r	.	2f/	.	1cc_	.	1ccc_	.
8C/	.	.	.	.	.	.	.	.	.	.	.
8C/	.	.	.	.	.	.	.	.	.	.	.
8C/J	.	.	.	.	.	.	.	.	.	.	.
8C/L	.	8c\)	.	.	.	8e/	.	.	.	.	.
8C/	.	8r	.	.	.	8r	.	.	.	.	.
8C/	.	8Bn\	.	.	.	8d/	.	.	.	.	.
8C/J	.	8r	.	.	.	8r	.	.	.	.	.
!LO:LB:g=original	!	!	!	!	!	!	!	!	!	!	!
=51	=51	=51	=51	=51	=51	=51	=51	=51	=51	=51	=51
*	*	*tremolo	*	*	*	*	*	*	*	*	*
!	!	!	!	!	!LO:DY:a:Bi:t=p&colon;	!	!	!	!	!	!
8C/L	.	8c\L	.	16c/LL	p	(16e/LL	.	1cc_	.	1ccc_	.
.	.	.	.	(16d/	.	16f/	.	.	.	.	.
8C/	.	8c\	.	16e/	.	16g/	.	.	.	.	.
.	.	.	.	16d/JJ)	.	16f/JJ)	.	.	.	.	.
8C/	.	8c\	.	4c/	.	4e/	.	.	.	.	.
8C/J	.	8c\J	.	.	.	.	.	.	.	.	.
8C/L	.	8c\L	.	8d/	.	8f/	.	.	.	.	.
8C/	.	8c\	.	8r	.	8r	.	.	.	.	.
8C/	.	8c\	.	8e/	.	8g/	.	.	.	.	.
8C/J	.	8c\J	.	8r	.	8r	.	.	.	.	.
=52	=52	=52	=52	=52	=52	=52	=52	=52	=52	=52	=52
!	!	!	!	!LO:N:vis=2.	!	!	!	!	!	!	!
8C/L	.	8c\L	.	2f/	.	2a/	.	1cc_	.	1ccc_	.
8C/	.	8c\	.	.	.	.	.	.	.	.	.
8C/	.	8c\	.	.	.	.	.	.	.	.	.
8C/J	.	8c\J	.	.	.	.	.	.	.	.	.
8C/L	.	8c\L	.	8e/	.	8g/	.	.	.	.	.
8C/	.	8c\	.	8r	.	8r	.	.	.	.	.
8C/	.	8c\	.	8f/	.	8bn\	.	.	.	.	.
8C/J	.	8c\J	.	8r	.	8r	.	.	.	.	.
!	!	!	!	!LO:LB:g=original	!	!	!	!	!	!	!
=53	=53	=53	=53	=53	=53	=53	=53	=53	=53	=53	=53
!	!	!	!	!	!	!	!LO:HP:a:t=cres	!	!	!	!
8C/L	.	8c\L	.	(16e/LL	.	16cc\LL	<	1cc_	.	1ccc_	.
.	.	.	.	16f/	.	16dd\	.	.	.	.	.
8C/	.	8c\	.	16g/	.	16ee\	.	.	.	.	.
.	.	.	.	16f/JJ)	.	16dd\JJ	.	.	.	.	.
8C/	.	8c\	.	4e/	.	4cc\	.	.	.	.	.
8C/J	.	8c\J	.	.	.	.	.	.	.	.	.
!	!	!	!	!	!LO:HP:a:t=cres	!LO:LB:g=original	!	!	!	!	!
8C/L	.	8c\L	.	8bn\	<	8dd\	.	.	.	.	.
8C/	.	8c\	.	8r	.	8r	.	.	.	.	.
8C/	.	8c\	.	8cc\	.	8ee\	.	.	.	.	.
8C/J	.	8c\J	.	8r	.	8r	.	.	.	.	.
=54	=54	=54	=54	=54	=54	=54	=54	=54	=54	=54	=54
8C/L	.	8c\L	.	(2dd\	.	(2ff\	.	1cc_	.	1ccc_	.
8C/	.	8c\	.	.	.	.	.	.	.	.	.
8C/	.	8c\	.	.	.	.	.	.	.	.	.
8C/J	.	8c\J	.	.	.	.	.	.	.	.	.
8C/L	.	8c\L	.	8cc\)	.	8ee\)	.	.	.	.	.
8C/	.	8c\	.	8r	.	8r	.	.	.	.	.
8C/	.	8c\	.	8bn\	.	8dd\	.	.	.	.	.
8C/J	.	8c\J	.	8r	.	8r	.	.	.	.	.
=55	=55	=55	=55	=55	=55	=55	=55	=55	=55	=55	=55
8C/L	.	8c\L	.	(16cc\LL	.	(16ee\LL	.	1cc_	.	1ccc_	.
.	.	.	.	16dd\	.	16ff\	.	.	.	.	.
8C/	.	8c\	.	16ee\	.	16gg\	.	.	.	.	.
.	.	.	.	16dd\JJ)	.	16ff\JJ)	.	.	.	.	.
8C/	.	8c\	.	4cc\	.	4ee\	.	.	.	.	.
8C/J	.	8c\J	.	.	.	.	.	.	.	.	.
!	!	!	!	!	!	!LO:TX:t=P:problem=8r poprawiona na 8aa	!	!	!	!	!
8F\L	.	8f\L	.	8cc\	.	8aa\	.	.	.	.	.
8F\	.	8f\	.	8r	.	8r	.	.	.	.	.
8F\	.	8f\	.	8dd\	.	8bbn\	.	.	.	.	.
8F\J	.	8f\J	.	8r	.	8r	.	.	.	.	.
*Xtremolo	*	*	*	*	*	*	*	*	*	*	*
!	!	!LO:TX:t=+	!	!	!	!	!	!	!	!	!
=56	=56	=56	=56	=56	=56	=56	=56	=56	=56	=56	=56
!	!LO:DY:a:Bi:t=f&colon;	!	!	!	!LO:DY:a	!	!	!	!	!	!
8E\L	f	8g\L	.	16ee\LL	f	4ccc\	.	4cc\]	.	4ccc\]	.
.	.	.	.	16cc\	.	.	.	.	.	.	.
8c\	.	8g\	.	16cc\	.	.	.	.	.	.	.
.	.	.	.	16cc\JJ	.	.	.	.	.	.	.
*	*	*	*	*tremolo	*	*	*	*	*	*	*
8E\	.	8g\	.	16cc\LL	.	(16cc\LL	.	4r	.	4r	.
.	.	.	.	16cc\	.	16bn\	.	.	.	.	.
8c\J	.	8g\J	.	16cc\	.	16cc\	.	.	.	.	.
.	.	.	.	16cc\JJ	.	16dd\JJ)	.	.	.	.	.
8E\L	.	8g\L	.	16cc\LL	.	4cc\	.	2r	.	2r	.
.	.	.	.	16cc\	.	.	.	.	.	.	.
8c\	.	8g\	.	16cc\	.	.	.	.	.	.	.
.	.	.	.	16cc\JJ	.	.	.	.	.	.	.
8E\	.	8g\	.	16cc\LL	.	4r	.	.	.	.	.
.	.	.	.	16cc\	.	.	.	.	.	.	.
8c\J	.	8g\J	.	16cc\	.	.	.	.	.	.	.
.	.	.	.	16cc\JJ	.	.	.	.	.	.	.
=57	=57	=57	=57	=57	=57	=57	=57	=57	=57	=57	=57
!LO:TX:t=P:problem=takt zapisany repetycją	!	!	!	!	!	!	!	!	!	!	!
.	.	.	.	.	.	16qqdd/	.	.	.	.	.
8E\Lyy	.	8g\L	.	16cc\LL	.	(16cc\LL	.	00r	.	00r	.
.	.	.	.	16cc\	.	16bn\	.	.	.	.	.
8c\yy	.	8g\	.	16cc\	.	16cc\)	.	.	.	.	.
.	.	.	.	16cc\JJ	.	16dd\JJ	.	.	.	.	.
8E\yy	.	8g\	.	16cc\LL	.	8cc\L	.	.	.	.	.
.	.	.	.	16cc\	.	.	.	.	.	.	.
8c\Jyy	.	8g\J	.	16cc\	.	8ee\J	.	.	.	.	.
.	.	.	.	16cc\JJ	.	.	.	.	.	.	.
*	*	*Xtremolo	*	*	*	*	*	*	*	*	*
8E\Lyy	.	8g\L	.	16cc\LL	.	(16gg\LL	.	.	.	.	.
.	.	.	.	16cc\	.	16ff\	.	.	.	.	.
8c\yy	.	8g\	.	16cc\	.	16gg\)	.	.	.	.	.
.	.	.	.	16cc\JJ	.	16aa\JJ	.	.	.	.	.
8E\yy	.	8e\	.	16cc\LL	.	8gg\L	.	.	.	.	.
.	.	.	.	16cc\	.	.	.	.	.	.	.
8c\Jyy	.	8e\J	.	16cc\	.	8bb-\J	.	.	.	.	.
.	.	.	.	16cc\JJ	.	.	.	.	.	.	.
=58	=58	=58	=58	=58	=58	=58	=58	=58	=58	=58	=58
*	*	*tremolo	*	*	*	*	*	*	*	*	*
8F\L	.	8f\L	.	16cc\LL	.	4aa\	.	.	.	.	.
.	.	.	.	16cc\	.	.	.	.	.	.	.
8c\	.	8f\	.	16cc\	.	.	.	.	.	.	.
.	.	.	.	16cc\JJ	.	.	.	.	.	.	.
8F\	.	8f\	.	16cc\LL	.	(16dd\LL	.	.	.	.	.
.	.	.	.	16cc\	.	16cc#X\	.	.	.	.	.
8c\J	.	8f\J	.	16cc\	.	16dd\	.	.	.	.	.
.	.	.	.	16cc\JJ	.	16ee\JJ)	.	.	.	.	.
8F\L	.	8f\L	.	16cc\LL	.	4dd\	.	.	.	.	.
.	.	.	.	16cc\	.	.	.	.	.	.	.
8c\	.	8f\	.	16cc\	.	.	.	.	.	.	.
.	.	.	.	16cc\JJ	.	.	.	.	.	.	.
8F\	.	8f\	.	16cc\LL	.	4r	.	.	.	.	.
.	.	.	.	16cc\	.	.	.	.	.	.	.
8c\J	.	8f\J	.	16cc\	.	.	.	.	.	.	.
.	.	.	.	16cc\JJ	.	.	.	.	.	.	.
=59	=59	=59	=59	=59	=59	=59	=59	=59	=59	=59	=59
.	.	.	.	.	.	16qqee/	.	.	.	.	.
8F\L	.	8f\L	.	16cc\LL	.	(16dd\LL	.	.	.	.	.
.	.	.	.	16cc\	.	16cc#X\	.	.	.	.	.
8c\	.	8f\	.	16cc\	.	16dd\	.	.	.	.	.
.	.	.	.	16cc\JJ	.	16ee\JJ)	.	.	.	.	.
8F\	.	8f\	.	16cc\LL	.	8dd\L	.	.	.	.	.
.	.	.	.	16cc\	.	.	.	.	.	.	.
8c\J	.	8f\J	.	16cc\	.	8ff\J	.	.	.	.	.
.	.	.	.	16cc\JJ	.	.	.	.	.	.	.
!	!	!	!	!	!	!LO:LB:g=original	!	!	!	!	!
.	.	.	.	.	.	8qqbb-/	.	.	.	.	.
*	*	*Xtremolo	*	*	*	*	*	*	*	*	*
8F\L	.	8f\L	.	16cc\LL	.	(16aa\LL	.	.	.	.	.
.	.	.	.	16cc\	.	16gg\	.	.	.	.	.
8c\	.	8f\	.	16cc\	.	16aa\	.	.	.	.	.
.	.	.	.	16cc\JJ	.	16bb-\JJ)	.	.	.	.	.
*	*	*	*	*Xtremolo	*	*	*	*	*	*	*
8F#X\	.	8f#X\	.	16cc\LL	.	8aa\L	.	.	.	.	.
.	.	.	.	16cc\	.	.	.	.	.	.	.
8c\J	.	8f#\J	.	16a\	.	8cc#\J	.	.	.	.	.
.	.	.	.	16a\JJ	.	.	.	.	.	.	.
!	!	!	!	!LO:LB:g=original	!	!	!	!	!	!	!
=60	=60	=60	=60	=60	=60	=60	=60	=60	=60	=60	=60
*	*	*	*	*tremolo	*	*	*	*	*	*	*
!LO:TX:t=P:problem=mixed beam	!	!	!	!	!	!	!	!	!	!	!
8GG/L	.	8g\L	.	16g/LL	.	4bn/	.	.	.	.	.
.	.	.	.	16g/	.	.	.	.	.	.	.
8G\J	.	8Bn\J	.	16g/	.	.	.	.	.	.	.
.	.	.	.	16g/JJ	.	.	.	.	.	.	.
!LO:TX:t=P:problem=mixed beam	!	!LO:LB:g=original	!	!	!	!	!	!	!	!	!
8BBn/L	.	8d\L	.	16g/LL	.	(16g/LL	.	.	.	.	.
.	.	.	.	16g/	.	16f#X/	.	.	.	.	.
8G\J	.	8B\J	.	16g/	.	16g/	.	.	.	.	.
.	.	.	.	16g/JJ	.	16a/JJ)	.	.	.	.	.
!LO:TX:t=P:problem=mixed beam	!	!	!	!	!	!	!	!	!	!	!
8BB/L	.	8d\L	.	16g/LL	.	4g/	.	.	.	.	.
.	.	.	.	16g/	.	.	.	.	.	.	.
8G\	.	8B\	.	16g/	.	.	.	.	.	.	.
.	.	.	.	16g/JJ	.	.	.	.	.	.	.
8BB/	.	8d\	.	16g/LL	.	4r	.	.	.	.	.
.	.	.	.	16g/	.	.	.	.	.	.	.
8G\J	.	8B\J	.	16g/	.	.	.	.	.	.	.
.	.	.	.	16g/JJ	.	.	.	.	.	.	.
=61	=61	=61	=61	=61	=61	=61	=61	=61	=61	=61	=61
!LO:TX:t=P:problem=mixed beam	!	!	!	!	!	!	!	!	!	!	!
.	.	.	.	.	.	8qqa/	.	.	.	.	.
!LO:SIC:v:s=8BBn/L	!	!	!	!	!	!	!	!	!	!	!
8BB-/L	.	8d\L	.	16g/LL	.	(16g/LL	.	00r	.	00r	.
.	.	.	.	16g/	.	16f#X/	.	.	.	.	.
!	!	!LO:SIC:v:s=8Bn\	!	!	!	!	!	!	!	!	!
8G\	.	8B-\	.	16g/	.	16g/	.	.	.	.	.
.	.	.	.	16g/JJ	.	16a/JJ)	.	.	.	.	.
!LO:SIC:v:s=8BBn/	!	!	!	!	!	!	!	!	!	!	!
8BB-/	.	8d\	.	16g/LL	.	8g/L	.	.	.	.	.
.	.	.	.	16g/	.	.	.	.	.	.	.
!	!	!LO:SIC:v:s=8Bn\J	!	!	!	!	!	!	!	!	!
8G\J	.	8B-\J	.	16g/	.	8G/J	.	.	.	.	.
.	.	.	.	16g/JJ	.	.	.	.	.	.	.
.	.	.	.	.	.	8qqee/	.	.	.	.	.
!LO:LB:g=original	!	!	!	!	!	!	!	!	!	!	!
!LO:TX:t=P:problem=mixed beam	!	!	!	!	!	!	!	!	!	!	!
!LO:SIC:v:s=8BBn/L	!	!	!	!	!	!	!	!	!	!	!
8BB-/L	.	8d\L	.	16g/LL	.	(16dd\LL	.	.	.	.	.
.	.	.	.	16g/	.	16cc\	.	.	.	.	.
!	!	!LO:SIC:v:s=8Bn\	!	!	!	!	!	!	!	!	!
8G\	.	8B-\	.	16g/	.	16dd\	.	.	.	.	.
.	.	.	.	16g/JJ	.	16ee\JJ)	.	.	.	.	.
!LO:SIC:v:s=8BBn/	!	!	!	!	!	!	!	!	!	!	!
8BB-/	.	8d\	.	16g/LL	.	8dd\L	.	.	.	.	.
.	.	.	.	16g/	.	.	.	.	.	.	.
!	!	!LO:SIC:v:s=8Bn\J	!	!	!	!	!	!	!	!	!
8G\J	.	8B-\J	.	16g/	.	8ff\J	.	.	.	.	.
.	.	.	.	16g/JJ	.	.	.	.	.	.	.
=62	=62	=62	=62	=62	=62	=62	=62	=62	=62	=62	=62
!LO:TX:t=P:problem=mixed beam	!	!	!	!	!	!	!	!	!	!	!
8C/L	.	8c\L	.	16g/LL	.	4ee\	.	.	.	.	.
.	.	.	.	16g/	.	.	.	.	.	.	.
8c\	.	8e\	.	16g/	.	.	.	.	.	.	.
.	.	.	.	16g/JJ	.	.	.	.	.	.	.
.	.	.	.	.	.	8qqdd/	.	.	.	.	.
8E/	.	8g\	.	16g/LL	.	(16cc\LL	.	.	.	.	.
.	.	.	.	16g/	.	16bn\	.	.	.	.	.
8c/J	.	8e\J	.	16g/	.	16cc\	.	.	.	.	.
.	.	.	.	16g/JJ	.	16dd\JJ)	.	.	.	.	.
8E\L	.	8g\L	.	16g/LL	.	4cc\	.	.	.	.	.
.	.	.	.	16g/	.	.	.	.	.	.	.
8c\	.	8e\	.	16g/	.	.	.	.	.	.	.
.	.	.	.	16g/JJ	.	.	.	.	.	.	.
8E\	.	8g\	.	16g/LL	.	4r	.	.	.	.	.
.	.	.	.	16g/	.	.	.	.	.	.	.
8c\J	.	8e\J	.	16g/	.	.	.	.	.	.	.
.	.	.	.	16g/JJ	.	.	.	.	.	.	.
=63	=63	=63	=63	=63	=63	=63	=63	=63	=63	=63	=63
.	.	.	.	.	.	8qqdd/	.	.	.	.	.
8E\L	.	8g\L	.	16g/LL	.	(16cc\LL	.	.	.	.	.
.	.	.	.	16g/	.	16bn\	.	.	.	.	.
8c\	.	8e\	.	16g/	.	16cc\	.	.	.	.	.
.	.	.	.	16g/JJ	.	16dd\JJ)	.	.	.	.	.
!	!	!	!	!	!	!LO:TX:t=P:problem=mixed beam	!	!	!	!	!
8E\	.	8g\	.	16g/LL	.	8cc\L	.	.	.	.	.
.	.	.	.	16g/	.	.	.	.	.	.	.
8c\J	.	8e\J	.	16g/	.	8c/J	.	.	.	.	.
.	.	.	.	16g/JJ	.	.	.	.	.	.	.
.	.	.	.	.	.	8qqff/	.	.	.	.	.
8E\L	.	8g\L	.	16g/LL	.	(16ee\LL	.	.	.	.	.
.	.	.	.	16g/	.	16dd\	.	.	.	.	.
8c\	.	8e\	.	16g/	.	16ee\	.	.	.	.	.
.	.	.	.	16g/JJ	.	16ff\JJ)	.	.	.	.	.
8E\	.	8g\	.	16g/LL	.	8ee\L	.	.	.	.	.
.	.	.	.	16g/	.	.	.	.	.	.	.
8c\J	.	8e\J	.	16g/	.	8gg\J	.	.	.	.	.
.	.	.	.	16g/JJ	.	.	.	.	.	.	.
*	*	*	*	*Xtremolo	*	*	*	*	*	*	*
=64	=64	=64	=64	=64	=64	=64	=64	=64	=64	=64	=64
!	!	!LO:TX:t=P:problem=takt zapisany repetycją	!	!	!	!	!	!	!	!	!
8E\L	.	8g\Lyy	.	16g/LL	.	4bb-\	.	.	.	.	.
.	.	.	.	16b-/	.	.	.	.	.	.	.
8c#X\	.	8e\yy	.	16g/	.	.	.	.	.	.	.
.	.	.	.	16b-/JJ	.	.	.	.	.	.	.
.	.	.	.	.	.	8qqdd/	.	.	.	.	.
8E\	.	8g\yy	.	16g/LL	.	(16cc#X\LL	.	.	.	.	.
.	.	.	.	16b-/	.	16b-\	.	.	.	.	.
8c#\J	.	8e\Jyy	.	16g/	.	16cc#\	.	.	.	.	.
.	.	.	.	16b-/JJ	.	16dd\JJ)	.	.	.	.	.
8E\L	.	8g\Lyy	.	16g/LL	.	4cc#\	.	.	.	.	.
.	.	.	.	16b-/	.	.	.	.	.	.	.
8c#\	.	8e\yy	.	16g/	.	.	.	.	.	.	.
.	.	.	.	16b-/JJ	.	.	.	.	.	.	.
8E\	.	8g\yy	.	16g/LL	.	4r	.	.	.	.	.
.	.	.	.	16b-/	.	.	.	.	.	.	.
8c#\J	.	8e\Jyy	.	16g/	.	.	.	.	.	.	.
.	.	.	.	16b-/JJ	.	.	.	.	.	.	.
=65	=65	=65	=65	=65	=65	=65	=65	=65	=65	=65	=65
!	!	!	!	!LO:TX:t=P:problem=takt zapisany repetycją	!	!	!	!	!	!	!
.	.	.	.	.	.	8qqdd/	.	.	.	.	.
8E\L	.	8g\L	.	16g/LLyy	.	16cc#X\LL	.	00r	.	00r	.
.	.	.	.	16b-/yy	.	16b-\	.	.	.	.	.
!LO:SIC:v:s=8c#\	!	!	!	!	!	!	!	!	!	!	!
8c\	.	8e\	.	16g/yy	.	16cc#\	.	.	.	.	.
.	.	.	.	16b-/JJyy	.	16dd\JJ	.	.	.	.	.
!	!	!	!	!	!	!LO:TX:t=P:problem=mixed beam	!	!	!	!	!
8E\	.	8g\	.	16g/LLyy	.	8cc#\L	.	.	.	.	.
.	.	.	.	16b-/yy	.	.	.	.	.	.	.
!LO:SIC:v:s=8c#\J	!	!	!	!	!	!	!	!	!	!	!
8c\J	.	8e\J	.	16g/yy	.	8A/J	.	.	.	.	.
.	.	.	.	16b-/JJyy	.	.	.	.	.	.	.
!	!	!	!	!	!	!LO:LB:g=original	!	!	!	!	!
8E\L	.	8g\L	.	16g/LLyy	.	16gg\LL	.	.	.	.	.
.	.	.	.	16b-/yy	.	16ff\	.	.	.	.	.
!LO:SIC:v:s=8c#\	!	!	!	!	!	!	!	!	!	!	!
8c\	.	8e\	.	16g/yy	.	16gg\	.	.	.	.	.
.	.	.	.	16b-/JJyy	.	16aa\JJ	.	.	.	.	.
!	!	!	!	!	!	!LO:TX:t=P:problem=mixed beam	!	!	!	!	!
8E\	.	8g\	.	16g/LLyy	.	8gg\L	.	.	.	.	.
.	.	.	.	16b-/yy	.	.	.	.	.	.	.
!LO:SIC:v:s=8c#\J	!	!	!	!	!	!	!	!	!	!	!
8c\J	.	8e\J	.	16g/yy	.	8A/J	.	.	.	.	.
.	.	.	.	16b-/JJyy	.	.	.	.	.	.	.
=66	=66	=66	=66	=66	=66	=66	=66	=66	=66	=66	=66
8F\L	.	8a\L	.	16a\LL	.	4ff\	.	.	.	.	.
.	.	.	.	16dd\	.	.	.	.	.	.	.
8d\	.	8f\	.	16dd\	.	.	.	.	.	.	.
.	.	.	.	16dd\JJ	.	.	.	.	.	.	.
.	.	.	.	.	.	8qqee/	.	.	.	.	.
*	*	*	*	*tremolo	*	*	*	*	*	*	*
8F\	.	8a\	.	16dd\LL	.	(16dd\LL	.	.	.	.	.
.	.	.	.	16dd\	.	16cc#X\	.	.	.	.	.
8d\J	.	8f\J	.	16dd\	.	16dd\	.	.	.	.	.
.	.	.	.	16dd\JJ	.	16ee\JJ)	.	.	.	.	.
8F\L	.	8a\L	.	16dd\LL	.	4dd\	.	.	.	.	.
.	.	.	.	16dd\	.	.	.	.	.	.	.
8d\	.	8f\	.	16dd\	.	.	.	.	.	.	.
.	.	.	.	16dd\JJ	.	.	.	.	.	.	.
8F\	.	8a\	.	16dd\LL	.	4r	.	.	.	.	.
.	.	.	.	16dd\	.	.	.	.	.	.	.
8d\J	.	8f\J	.	16dd\	.	.	.	.	.	.	.
.	.	.	.	16dd\JJ	.	.	.	.	.	.	.
=67	=67	=67	=67	=67	=67	=67	=67	=67	=67	=67	=67
.	.	.	.	.	.	8qqee/	.	.	.	.	.
8F\L	.	8a\L	.	16dd\LL	.	(16dd\LL	.	.	.	.	.
.	.	.	.	16dd\	.	16cc#X\	.	.	.	.	.
8d\	.	8f\	.	16dd\	.	16dd\	.	.	.	.	.
.	.	.	.	16dd\JJ	.	16ee\JJ)	.	.	.	.	.
!	!	!	!	!	!	!LO:TX:t=P:problem=mixed beam	!	!	!	!	!
8F\	.	8a\	.	16dd\LL	.	8dd\L	.	.	.	.	.
.	.	.	.	16dd\	.	.	.	.	.	.	.
8d\J	.	8f\J	.	16dd\	.	8d/J	.	.	.	.	.
.	.	.	.	16dd\JJ	.	.	.	.	.	.	.
8F\L	.	8a\L	.	16dd\LL	.	16aa\LL	.	.	.	.	.
.	.	.	.	16dd\	.	16gg\	.	.	.	.	.
8d\	.	8f\	.	16dd\	.	16aa\	.	.	.	.	.
.	.	.	.	16dd\JJ	.	16bb-\JJ	.	.	.	.	.
8F#X\	.	8a\	.	16cc\LL	.	8aa\L	.	.	.	.	.
.	.	.	.	16cc\	.	.	.	.	.	.	.
8d\J	.	8f#X\J	.	16cc\	.	8cc#\J	.	.	.	.	.
.	.	.	.	16cc\JJ	.	.	.	.	.	.	.
*	*	*	*	*Xtremolo	*	*	*	*	*	*	*
=68	=68	=68	=68	=68	=68	=68	=68	=68	=68	=68	=68
!LO:TX:t=P:problem=mixed beam	!	!	!	!	!	!	!	!	!	!	!
8GG/L	.	8g\L	.	16bn/LL	.	4bn\	.	.	.	.	.
.	.	.	.	16g/	.	.	.	.	.	.	.
8G\	.	8Bn\	.	16g/	.	.	.	.	.	.	.
.	.	.	.	16g/JJ	.	.	.	.	.	.	.
*	*	*	*	*tremolo	*	*	*	*	*	*	*
!	!	!	!	!LO:LB:g=original	!	!	!	!	!	!	!
8BBn/	.	8d\	.	16g/LL	.	(16g/LL	.	.	.	.	.
.	.	.	.	16g/	.	16f#X/	.	.	.	.	.
8G\J	.	8B\J	.	16g/	.	16g/)	.	.	.	.	.
.	.	.	.	16g/JJ	.	16a/JJ	.	.	.	.	.
!LO:TX:t=P:problem=mixed beam	!	!LO:LB:g=original	!	!	!	!	!	!	!	!	!
8BB/L	.	8d\L	.	16g/LL	.	4g/	.	.	.	.	.
.	.	.	.	16g/	.	.	.	.	.	.	.
8G\J	.	8B\	.	16g/	.	.	.	.	.	.	.
.	.	.	.	16g/JJ	.	.	.	.	.	.	.
!LO:LB:g=original	!	!	!	!	!	!	!	!	!	!	!
!LO:TX:t=P:problem=mixed beam	!	!	!	!	!	!	!	!	!	!	!
8BB/L	.	8d\	.	16g/LL	.	4r	.	.	.	.	.
.	.	.	.	16g/	.	.	.	.	.	.	.
8G\J	.	8B\J	.	16g/	.	.	.	.	.	.	.
.	.	.	.	16g/JJ	.	.	.	.	.	.	.
=69	=69	=69	=69	=69	=69	=69	=69	=69	=69	=69	=69
!LO:TX:t=P:problem=mixed beam	!	!	!	!	!	!	!	!	!	!	!
.	.	.	.	.	.	8qqa/	.	.	.	.	.
!LO:SIC:v:s=8BBn/L	!	!	!	!	!	!	!	!	!	!	!
8BB-/L	.	8d\L	.	16g/LL	.	(16g/LL	.	00r	.	00r	.
.	.	.	.	16g/	.	16f#X/	.	.	.	.	.
!	!	!LO:SIC:v:s=8Bn\	!	!	!	!	!	!	!	!	!
8G\	.	8B-\	.	16g/	.	16g/)	.	.	.	.	.
.	.	.	.	16g/JJ	.	16a/JJ	.	.	.	.	.
!LO:SIC:v:s=8BBn/	!	!	!	!	!	!	!	!	!	!	!
8BB-/	.	8d\	.	16g/LL	.	8g/L	.	.	.	.	.
.	.	.	.	16g/	.	.	.	.	.	.	.
!	!	!LO:SIC:v:s=8Bn\J	!	!	!	!	!	!	!	!	!
8G\J	.	8B-\J	.	16g/	.	8G/J	.	.	.	.	.
.	.	.	.	16g/JJ	.	.	.	.	.	.	.
!LO:TX:t=P:problem=mixed beam	!	!	!	!	!	!	!	!	!	!	!
.	.	.	.	.	.	8qqee/	.	.	.	.	.
!LO:SIC:v:s=8BBn/L	!	!	!	!	!	!	!	!	!	!	!
8BB-/L	.	8d\L	.	16g/LL	.	(16dd\LL	.	.	.	.	.
.	.	.	.	16g/	.	16cc\	.	.	.	.	.
!	!	!LO:SIC:v:s=8Bn\	!	!	!	!	!	!	!	!	!
8G\	.	8B-\	.	16g/	.	16dd\	.	.	.	.	.
.	.	.	.	16g/JJ	.	16ee\JJ)	.	.	.	.	.
!LO:SIC:v:s=8BBn/	!	!	!	!	!	!	!	!	!	!	!
8BB-/	.	8d\	.	16g/LL	.	8dd\L	.	.	.	.	.
.	.	.	.	16g/	.	.	.	.	.	.	.
!	!	!LO:SIC:v:s=8Bn\J	!	!	!	!	!	!	!	!	!
8G\J	.	8B-\J	.	16g/	.	8ff\J	.	.	.	.	.
.	.	.	.	16g/JJ	.	.	.	.	.	.	.
=70	=70	=70	=70	=70	=70	=70	=70	=70	=70	=70	=70
!LO:TX:t=P:problem=mixed beam	!	!	!	!	!	!	!	!	!	!	!
8C/L	.	8c\L	.	16g/LL	.	4ee\	.	.	.	.	.
.	.	.	.	16g/	.	.	.	.	.	.	.
8c\J	.	8e\	.	16g/	.	.	.	.	.	.	.
.	.	.	.	16g/JJ	.	.	.	.	.	.	.
.	.	.	.	.	.	8qqdd/	.	.	.	.	.
8E\L	.	8g\	.	16g/LL	.	(16cc\LL	.	.	.	.	.
.	.	.	.	16g/	.	16bn\	.	.	.	.	.
8c\J	.	8e\J	.	16g/	.	16cc\	.	.	.	.	.
.	.	.	.	16g/JJ	.	16dd\JJ)	.	.	.	.	.
8E\L	.	8g\L	.	16g/LL	.	4cc\	.	.	.	.	.
.	.	.	.	16g/	.	.	.	.	.	.	.
8c\	.	8e\	.	16g/	.	.	.	.	.	.	.
.	.	.	.	16g/JJ	.	.	.	.	.	.	.
8E\	.	8g\	.	16g/LL	.	4r	.	.	.	.	.
.	.	.	.	16g/	.	.	.	.	.	.	.
8c\J	.	8e\J	.	16g/	.	.	.	.	.	.	.
.	.	.	.	16g/JJ	.	.	.	.	.	.	.
=71	=71	=71	=71	=71	=71	=71	=71	=71	=71	=71	=71
.	.	.	.	.	.	16qqdd/	.	.	.	.	.
8E\L	.	8g\L	.	16g/LL	.	(16cc\LL	.	.	.	.	.
.	.	.	.	16g/	.	16bn\	.	.	.	.	.
8c\	.	8e\	.	16g/	.	16cc\	.	.	.	.	.
.	.	.	.	16g/JJ	.	16dd\JJ)	.	.	.	.	.
!	!	!	!	!	!	!LO:TX:t=P:problem=mixed beam	!	!	!	!	!
8E\	.	8g\	.	16g/LL	.	8cc\L	.	.	.	.	.
.	.	.	.	16g/	.	.	.	.	.	.	.
8c\J	.	8e\J	.	16g/	.	8c/J	.	.	.	.	.
.	.	.	.	16g/JJ	.	.	.	.	.	.	.
!	!	!	!	!	!	!LO:LB:g=original	!	!	!	!	!
.	.	.	.	.	.	8qqff/	.	.	.	.	.
8E\L	.	8g\L	.	16g/LL	.	(16ee\LL	.	.	.	.	.
.	.	.	.	16g/	.	16dd\	.	.	.	.	.
8c\	.	8e\	.	16g/	.	16ee\	.	.	.	.	.
.	.	.	.	16g/JJ	.	16ff\JJ)	.	.	.	.	.
8E\	.	8g\	.	16g/LL	.	8ee\L	.	.	.	.	.
.	.	.	.	16g/	.	.	.	.	.	.	.
8c\J	.	8e\J	.	16g/	.	8gg\J	.	.	.	.	.
.	.	.	.	16g/JJ	.	.	.	.	.	.	.
=72	=72	=72	=72	=72	=72	=72	=72	=72	=72	=72	=72
*	*	*	*	*Xtremolo	*	*tremolo	*	*	*	*	*
8E\L	.	8g\L	.	16g/LL	.	16bb-X\LL	.	.	.	.	.
.	.	.	.	16b-/	.	16bb-X\	.	.	.	.	.
8c\	.	8e\	.	16g/	.	16bb-X\	.	.	.	.	.
.	.	.	.	16b-/JJ	.	16bb-X\JJ	.	.	.	.	.
8E\	.	8g\	.	16g/LL	.	16gg\LL	.	.	.	.	.
.	.	.	.	16b-/	.	16gg\	.	.	.	.	.
8c\J	.	8e\J	.	16g/	.	16gg\	.	.	.	.	.
.	.	.	.	16b-/JJ	.	16gg\JJ	.	.	.	.	.
8E\L	.	8g\L	.	16g/LL	.	16ee\LL	.	.	.	.	.
.	.	.	.	16b-/	.	16ee\	.	.	.	.	.
8c\	.	8e\	.	16g/	.	16ee\	.	.	.	.	.
.	.	.	.	16b-/JJ	.	16ee\JJ	.	.	.	.	.
8E\	.	8g\	.	16g/LL	.	16cc\LL	.	.	.	.	.
.	.	.	.	16b-/	.	16cc\	.	.	.	.	.
8c\J	.	8e\J	.	16g/	.	16cc\	.	.	.	.	.
.	.	.	.	16b-/JJ	.	16cc\JJ	.	.	.	.	.
=73	=73	=73	=73	=73	=73	=73	=73	=73	=73	=73	=73
!LO:TX:t=P:problem=takt zapisany repetycją	!	!LO:TX:t=P:problem=takt zapisany repetycją	!	!LO:TX:t=P:problem=takt zapisany repetycją	!	!	!	!	!	!	!
8E\Lyy	.	8g\Lyy	.	16g/LLyy	.	16b-/LL	.	1r	.	1r	.
.	.	.	.	16b-/yy	.	16b-/	.	.	.	.	.
8c\yy	.	8e\yy	.	16g/yy	.	16b-/	.	.	.	.	.
.	.	.	.	16b-/JJyy	.	16b-/JJ	.	.	.	.	.
8E\yy	.	8g\yy	.	16g/LLyy	.	16g/LL	.	.	.	.	.
.	.	.	.	16b-/yy	.	16g/	.	.	.	.	.
8c\Jyy	.	8e\Jyy	.	16g/yy	.	16g/	.	.	.	.	.
.	.	.	.	16b-/JJyy	.	16g/JJ	.	.	.	.	.
8E\Lyy	.	8g\Lyy	.	16g/LLyy	.	16e/LL	.	.	.	.	.
.	.	.	.	16b-/yy	.	16e/	.	.	.	.	.
8c\yy	.	8e\yy	.	16g/yy	.	16e/	.	.	.	.	.
.	.	.	.	16b-/JJyy	.	16e/JJ	.	.	.	.	.
8E\yy	.	8g\yy	.	16g/LLyy	.	16c/LL	.	.	.	.	.
.	.	.	.	16b-/yy	.	16c/	.	.	.	.	.
8c\Jyy	.	8e\Jyy	.	16g/yy	.	16c/	.	.	.	.	.
.	.	.	.	16b-/JJyy	.	16c/JJ	.	.	.	.	.
*	*	*	*	*Xtremolo	*	*Xtremolo	*	*	*	*	*
=74	=74	=74	=74	=74	=74	=74	=74	=74	=74	=74	=74
*tremolo	*	*	*	*	*	*	*	*	*	*	*
!	!LO:DY:a:Bi:t=P&colon;	!	!LO:DY:a:Bi:t=P&colon;	!	!	!	!LO:DY:a:Bi:t=p&colon;	!	!LO:DY:a:Bi:t=pia.	!	!
8F\L	p	16f\LL	p	8a/	.	(16f/LL	p	[1f	p	[1ff	.
.	.	16g\	.	.	.	16g/	.	.	.	.	.
8F\	.	16a\	.	8r	.	16a/	.	.	.	.	.
.	.	16g\JJ	.	.	.	16f/JJ)	.	.	.	.	.
8F\	.	4f\	.	4r	.	4f/	.	.	.	.	.
8F\J	.	.	.	.	.	.	.	.	.	.	.
8F\L	.	8e\	.	2r	.	8g/	.	.	.	.	.
8F\	.	8r	.	.	.	8r	.	.	.	.	.
8F\	.	8f\	.	.	.	8a/	.	.	.	.	.
8F\J	.	8r	.	.	.	8r	.	.	.	.	.
=75	=75	=75	=75	=75	=75	=75	=75	=75	=75	=75	=75
8F\L	.	(2g\	.	1r	.	(2b-/	.	1f_	.	1ff_	.
8F\	.	.	.	.	.	.	.	.	.	.	.
8F\	.	.	.	.	.	.	.	.	.	.	.
8F\J	.	.	.	.	.	.	.	.	.	.	.
8F\L	.	8f\)	.	.	.	8a/)	.	.	.	.	.
8F\	.	8r	.	.	.	8r	.	.	.	.	.
8F\	.	8e\	.	.	.	8g/	.	.	.	.	.
8F\J	.	8r	.	.	.	8r	.	.	.	.	.
=76	=76	=76	=76	=76	=76	=76	=76	=76	=76	=76	=76
*	*	*tremolo	*	*	*	*	*	*	*	*	*
!	!	!	!	!	!LO:DY:a:Bi:t=p&colon;	!	!	!	!	!	!
8F\L	.	8f\L	.	(16f/LL	p	(16a/LL	.	1f_	.	1ff_	.
.	.	.	.	16g/	.	16b-/	.	.	.	.	.
8F\	.	8f\	.	16a/	.	16cc/	.	.	.	.	.
.	.	.	.	16g/JJ)	.	16b-/JJ)	.	.	.	.	.
8F\	.	8f\	.	4f/	.	4a/	.	.	.	.	.
8F\J	.	8f\J	.	.	.	.	.	.	.	.	.
8F\L	.	8f\L	.	8g/	.	8b-\	.	.	.	.	.
8F\	.	8f\	.	8r	.	8r	.	.	.	.	.
8F\	.	8f\	.	8a/	.	8cc\	.	.	.	.	.
8F\J	.	8f\J	.	8r	.	8r	.	.	.	.	.
!	!	!	!	!LO:LB:g=original	!	!	!	!LO:LB:g=original	!	!	!
=77	=77	=77	=77	=77	=77	=77	=77	=77	=77	=77	=77
!	!	!	!	!	!	!	!	!LO:TX:t=P:problem=brak zakończenia łuku	!	!	!
8F\L	.	8f\L	.	(2b-\	.	(2dd\	.	1f]	.	1ff_	.
8F\	.	8f\	.	.	.	.	.	.	.	.	.
8F\	.	8f\	.	.	.	.	.	.	.	.	.
8F\J	.	8f\J	.	.	.	.	.	.	.	.	.
8F\L	.	8f\L	.	8a\)	.	8cc\)	.	.	.	.	.
8F\	.	8f\	.	8r	.	8r	.	.	.	.	.
!	!	!	!	!	!	!	!LO:HP:a:t=crescendo	!	!	!	!
8F\	.	8f\	.	8b-\	.	8ee\	<	.	.	.	.
8F\J	.	8f\J	.	8r	.	8r	.	.	.	.	.
!	!	!LO:LB:g=original	!	!	!	!	!	!	!	!	!
=78	=78	=78	=78	=78	=78	=78	=78	=78	=78	=78	=78
!	!	!	!	!	!LO:HP:a:t=cres	!	!	!	!LO:HP:a:t=crescendo	!	!
8F\L	.	8f\L	.	(16a\LL	<	16ff\LL	.	1f	<	1ff_	.
.	.	.	.	16b-\	.	16gg\	.	.	.	.	.
8F\	.	8f\	.	16cc\	.	16aa\	.	.	.	.	.
.	.	.	.	16b-\JJ)	.	16gg\JJ	.	.	.	.	.
8F\	.	8f\	.	4a\	.	4ff\	.	.	.	.	.
8F\J	.	8f\J	.	.	.	.	.	.	.	.	.
!	!	!	!	!	!	!LO:LB:g=original	!	!	!	!	!
8F\L	.	8f\L	.	8ee\	.	8gg\	.	.	.	.	.
8F\	.	8f\	.	8r	.	8r	.	.	.	.	.
8F\	.	8f\	.	8ff\	.	8aa\	.	.	.	.	.
8F\J	.	8f\J	.	8r	.	8r	.	.	.	.	.
!LO:LB:g=original	!	!	!	!	!	!	!	!	!	!	!
=79	=79	=79	=79	=79	=79	=79	=79	=79	=79	=79	=79
8F\L	.	8f\L	.	2gg\	.	(2bb-\	.	1f	.	1ff_	.
8F\	.	8f\	.	.	.	.	.	.	.	.	.
8F\	.	8f\	.	.	.	.	.	.	.	.	.
8F\J	.	8f\J	.	.	.	.	.	.	.	.	.
8F\L	.	8f\L	.	8ff\	.	8aa\)	.	.	.	.	.
8F\	.	8f\	.	8r	.	8r	.	.	.	.	.
8F\	.	8f\	.	8ee\	.	8gg\	.	.	.	.	.
8F\J	.	8f\J	.	8r	.	8r	.	.	.	.	.
=80	=80	=80	=80	=80	=80	=80	=80	=80	=80	=80	=80
.	.	.	.	.	.	8qqbb-/	.	.	.	.	.
!	!	!	!	!	!LO:DY:a	!	!	!	!	!	!
8F\L	.	8f\L	.	(16ff\LL	f	(16aa\LL	.	1f	.	1ff]	.
.	.	.	.	16gg\	.	16bb-\	.	.	.	.	.
8F\	.	8f\	.	16aa\)	.	16ccc\	.	.	.	.	.
.	.	.	.	16gg\JJ	.	16bb-\JJ)	.	.	.	.	.
8F\	.	8f\	.	4ff\	.	4aa\	.	.	.	.	.
8F\J	.	8f\J	.	.	.	.	.	.	.	.	.
8F\L	.	8f\L	.	8gg\	.	8bb-\	.	.	.	.	.
8F\	.	8f\	.	8r	.	8r	.	.	.	.	.
8F\	.	8f\	.	8aa\	.	8ccc\	.	.	.	.	.
8F\J	.	8f\J	.	8ryy	.	8r	.	.	.	.	.
=81	=81	=81	=81	=81	=81	=81	=81	=81	=81	=81	=81
8F\L	.	8f\L	.	(2bb-\	.	2ddd\	.	2.f/	.	2.ff\	.
8F\	.	8f\	.	.	.	.	.	.	.	.	.
8F\	.	8f\	.	.	.	.	.	.	.	.	.
8F\J	.	8f\J	.	.	.	.	.	.	.	.	.
*Xtremolo	*	*Xtremolo	*	*	*	*	*	*	*	*	*
8F\L	.	8f\L	.	8aa\)	.	8ccc\	.	.	.	.	.
8F\	.	8f\	.	8r	.	8r	.	.	.	.	.
8B-\	.	8b-\	.	8ee\	.	8ee\	.	4ee\	.	4ee\	.
8B-\J	.	8b-\J	.	8r	.	8r	.	.	.	.	.
=82	=82	=82	=82	=82	=82	=82	=82	=82	=82	=82	=82
!LO:TX:t=P:problem=mixed beam	!	!LO:TX:t=P:problem=mixed beam	!	!LO:TX:t=P:problem=mixed beam	!	!	!LO:DY:a	!	!	!	!
.	.	.	.	.	.	8qqgg/	f	.	.	.	.
!	!	!	!LO:DY:a:Bi:t=f&colon;	!	!	!	!	!	!	!	!
8A\L	.	8a\L	f	16ff\LL	.	(16ff\LL	.	2ff\	.	2ff\	.
.	.	.	.	16f/	.	16ee\	.	.	.	.	.
8F\	.	8f\	.	16f/	.	16ff\	.	.	.	.	.
.	.	.	.	16f/JJ	.	16gg\JJ)	.	.	.	.	.
*	*	*	*	*tremolo	*	*	*	*	*	*	*
8AA/	.	8A/	.	16f/LL	.	4ff\	.	.	.	.	.
.	.	.	.	16f/	.	.	.	.	.	.	.
8F\J	.	8f\J	.	16f/	.	.	.	.	.	.	.
.	.	.	.	16f/JJ	.	.	.	.	.	.	.
!LO:TX:t=P:problem=mixed beam	!	!LO:TX:t=P:problem=mixed beam	!	!	!	!	!	!	!	!	!
8AA/L	.	8A/L	.	16f/LL	.	8r	.	2r	.	2r	.
.	.	.	.	16f/	.	.	.	.	.	.	.
8F\	.	8f\	.	16f/	.	8ff\L	.	.	.	.	.
.	.	.	.	16f/JJ	.	.	.	.	.	.	.
8AA/	.	8A/	.	16f/LL	.	8ff\	.	.	.	.	.
.	.	.	.	16f/	.	.	.	.	.	.	.
8F\J	.	8f\J	.	16f/	.	8ff\J	.	.	.	.	.
.	.	.	.	16f/JJ	.	.	.	.	.	.	.
!	!	!	!	!LO:LB:g=original	!	!	!	!	!	!LO:LB:g=original	!
=83	=83	=83	=83	=83	=83	=83	=83	=83	=83	=83	=83
!LO:TX:t=P:problem=mixed beam	!	!	!	!	!	!LO:TX:t=P:problem=mixed beam	!	!	!	!	!
8BB-/L	.	8B-\L	.	16f/LL	.	8gg\L	.	00r	.	00r	.
.	.	.	.	16f/	.	.	.	.	.	.	.
8F\	.	8f\	.	16f/	.	8g/J	.	.	.	.	.
.	.	.	.	16f/JJ	.	.	.	.	.	.	.
!	!	!	!	!	!	!LO:TX:t=P::problem=ósemka przerobiona na ćwierć&colon; skreślenie belki	!	!	!	!	!
8BB-/	.	8B-\	.	16f/LL	.	4g/	.	.	.	.	.
.	.	.	.	16f/	.	.	.	.	.	.	.
8F\J	.	8f\J	.	16f/	.	.	.	.	.	.	.
.	.	.	.	16f/JJ	.	.	.	.	.	.	.
8BB-\L	.	8B-\L	.	16f/LL	.	2r	.	.	.	.	.
.	.	.	.	16f/	.	.	.	.	.	.	.
8F\	.	8f\	.	16f/	.	.	.	.	.	.	.
.	.	.	.	16f/JJ	.	.	.	.	.	.	.
8BB-\	.	8B-\	.	16f/LL	.	.	.	.	.	.	.
.	.	.	.	16f/	.	.	.	.	.	.	.
8F\J	.	8f\J	.	16f/	.	.	.	.	.	.	.
.	.	.	.	16f/JJ	.	.	.	.	.	.	.
=84	=84	=84	=84	=84	=84	=84	=84	=84	=84	=84	=84
.	.	.	.	.	.	8qqgg/	.	.	.	.	.
8C\L	.	8c\L	.	16f/LL	.	(16ff\LL	.	.	.	.	.
.	.	.	.	16f/	.	16ee\	.	.	.	.	.
8F\	.	8f\	.	16f/	.	16ff\	.	.	.	.	.
.	.	.	.	16f/JJ	.	16gg\JJ)	.	.	.	.	.
8C\	.	8c\	.	16f/LL	.	4ff\	.	.	.	.	.
.	.	.	.	16f/	.	.	.	.	.	.	.
8F\J	.	8f\J	.	16f/	.	.	.	.	.	.	.
.	.	.	.	16f/JJ	.	.	.	.	.	.	.
8C\L	.	8c\L	.	16f/LL	.	8r	.	.	.	.	.
.	.	.	.	16f/	.	.	.	.	.	.	.
8F\	.	8f\	.	16f/	.	8ff\L	.	.	.	.	.
.	.	.	.	16f/JJ	.	.	.	.	.	.	.
8C\	.	8c\	.	16f/LL	.	8ff\	.	.	.	.	.
.	.	.	.	16f/	.	.	.	.	.	.	.
8F\J	.	8f\J	.	16f/	.	8ff\J	.	.	.	.	.
.	.	.	.	16f/JJ	.	.	.	.	.	.	.
!	!	!	!	!	!	!LO:LB:g=original	!	!	!	!	!
=85	=85	=85	=85	=85	=85	=85	=85	=85	=85	=85	=85
8D\L	.	8d\L	.	16f/LL	.	8ff\L	.	.	.	.	.
.	.	.	.	16f/	.	.	.	.	.	.	.
8F\	.	8f\	.	16f/	.	8b-\J	.	.	.	.	.
.	.	.	.	16f/JJ	.	.	.	.	.	.	.
8D\	.	8d\	.	16f/LL	.	2b-\	.	.	.	.	.
.	.	.	.	16f/	.	.	.	.	.	.	.
8F\J	.	8f\J	.	16f/	.	.	.	.	.	.	.
.	.	.	.	16f/JJ	.	.	.	.	.	.	.
8D\L	.	8d\L	.	16f/LL	.	.	.	.	.	.	.
.	.	.	.	16f/	.	.	.	.	.	.	.
8F\	.	8f\	.	16f/	.	.	.	.	.	.	.
.	.	.	.	16f/JJ	.	.	.	.	.	.	.
8D\	.	8d\	.	16f/LL	.	8.a/L	.	.	.	.	.
.	.	.	.	16f/	.	.	.	.	.	.	.
8F\J	.	8f\J	.	16f/	.	.	.	.	.	.	.
.	.	.	.	16f/JJ	.	16g/Jk	.	.	.	.	.
=86	=86	=86	=86	=86	=86	=86	=86	=86	=86	=86	=86
*	*	*	*	*	*	*tremolo	*	*	*	*	*
8BB-\L	.	8B-\L	.	16f/LL	.	16dd\LL	.	.	.	.	.
.	.	.	.	16f/	.	16dd\	.	.	.	.	.
8F\	.	8f\	.	16f/	.	16dd\	.	.	.	.	.
.	.	.	.	16f/JJ	.	16dd\JJ	.	.	.	.	.
8BB-\	.	8B-\	.	16f/LL	.	16b-\LL	.	.	.	.	.
.	.	.	.	16f/	.	16b-\	.	.	.	.	.
8F\J	.	8f\J	.	16f/	.	16b-\	.	.	.	.	.
.	.	.	.	16f/JJ	.	16b-\JJ	.	.	.	.	.
8BB-\L	.	8B-\L	.	16f/LL	.	16g/LL	.	.	.	.	.
.	.	.	.	16f/	.	16g/	.	.	.	.	.
8F\	.	8f\	.	16f/	.	16g/	.	.	.	.	.
.	.	.	.	16f/JJ	.	16g/JJ	.	.	.	.	.
8BBn\	.	8Bn\	.	16d/LL	.	16f/LL	.	.	.	.	.
.	.	.	.	16d/	.	16f/	.	.	.	.	.
8F\J	.	8f\J	.	16d/	.	16f/	.	.	.	.	.
.	.	.	.	16d/JJ	.	16f/JJ	.	.	.	.	.
*	*	*	*	*Xtremolo	*	*Xtremolo	*	*	*	*	*
=87	=87	=87	=87	=87	=87	=87	=87	=87	=87	=87	=87
*tremolo	*	*tremolo	*	*	*	*	*	*	*	*	*
!	!	!	!	!	!	!	!	!	!LO:DY:a:Bi:t=p.	!	!
8C/L	.	8c\L	.	8c/L	.	8e/L	.	[1cc	p	[1ccc	.
8C/	.	8c\	.	16Bn/L	.	16d/L	.	.	.	.	.
.	.	.	.	16c/JJ	.	16c/JJ	.	.	.	.	.
8C/	.	8c\	.	4c/	.	4c/	.	.	.	.	.
8C/J	.	8c\J	.	.	.	.	.	.	.	.	.
!	!	!LO:LB:g=original	!	!	!	!	!	!	!	!	!
8C/L	.	8c\L	.	2r	.	2r	.	.	.	.	.
8C/	.	8c\	.	.	.	.	.	.	.	.	.
8C/	.	8c\	.	.	.	.	.	.	.	.	.
8C/J	.	8c\J	.	.	.	.	.	.	.	.	.
!LO:LB:g=original	!	!	!	!	!	!	!	!	!	!	!
=88	=88	=88	=88	=88	=88	=88	=88	=88	=88	=88	=88
!	!LO:DY:a:Bi:t=pia	!	!	!	!LO:DY:a	!	!LO:DY:a	!	!	!	!
8C/L	p	8c\L	.	(16e/LL	p	(16g/LL	p	1cc_	.	1ccc_	.
.	.	.	.	16f/	.	16a/	.	.	.	.	.
8C/	.	8c\	.	16g/)	.	16b-/	.	.	.	.	.
.	.	.	.	16f/JJ	.	16a/JJ)	.	.	.	.	.
8C/	.	8c\	.	4e/	.	4g/	.	.	.	.	.
8C/J	.	8c\J	.	.	.	.	.	.	.	.	.
8C/L	.	8c\L	.	4r	.	4r	.	.	.	.	.
8C/	.	8c\	.	.	.	.	.	.	.	.	.
8C/	.	8c\	.	8fT/L	.	8a/L	.	.	.	.	.
8C/J	.	8c\J	.	(16e/L	.	16g/L	.	.	.	.	.
.	.	.	.	16f/JJ)	.	16a/JJ	.	.	.	.	.
=89	=89	=89	=89	=89	=89	=89	=89	=89	=89	=89	=89
.	.	.	.	8qqf/	.	8qqa/	.	.	.	.	.
8C/L	.	8c\L	.	2g/	.	2b-/	.	1cc_	.	1ccc_	.
8C/	.	8c\	.	.	.	.	.	.	.	.	.
8C/	.	8c\	.	.	.	.	.	.	.	.	.
8C/J	.	8c\J	.	.	.	.	.	.	.	.	.
8C/L	.	8c\L	.	2r	.	2r	.	.	.	.	.
8C/	.	8c\	.	.	.	.	.	.	.	.	.
8C/	.	8c\	.	.	.	.	.	.	.	.	.
8C/J	.	8c\J	.	.	.	.	.	.	.	.	.
=90	=90	=90	=90	=90	=90	=90	=90	=90	=90	=90	=90
8C/L	.	8c\L	.	(16g/LL	.	(16ee\LL	.	1cc_	.	1ccc_	.
.	.	.	.	16a/	.	16ff\	.	.	.	.	.
8C/	.	8c\	.	16b-/	.	16gg\)	.	.	.	.	.
.	.	.	.	16a/JJ)	.	16ff\JJ	.	.	.	.	.
8C/	.	8c\	.	4g/	.	4ee\	.	.	.	.	.
8C/J	.	8c\J	.	.	.	.	.	.	.	.	.
8C/L	.	8c\L	.	4r	.	4r	.	.	.	.	.
8C/	.	8c\	.	.	.	.	.	.	.	.	.
8C/	.	8c\	.	8a/L	.	8ffT\L	.	.	.	.	.
8C/J	.	8c\J	.	(16g/L	.	16ee\L	.	.	.	.	.
.	.	.	.	16a/JJ)	.	16ff\JJ	.	.	.	.	.
=91	=91	=91	=91	=91	=91	=91	=91	=91	=91	=91	=91
.	.	.	.	8qqa/	.	8qqff/	.	.	.	.	.
8C/L	.	8c\L	.	2b-\	.	2gg\	.	1cc_	.	1ccc_	.
8C/	.	8c\	.	.	.	.	.	.	.	.	.
8C/	.	8c\	.	.	.	.	.	.	.	.	.
8C/J	.	8c\J	.	.	.	.	.	.	.	.	.
8C/L	.	8c\L	.	2r	.	2r	.	.	.	.	.
8C/	.	8c\	.	.	.	.	.	.	.	.	.
8C/	.	8c\	.	.	.	.	.	.	.	.	.
8C/J	.	8c\J	.	.	.	.	.	.	.	.	.
!	!	!	!	!LO:LB:g=original	!	!	!	!	!	!	!
=92	=92	=92	=92	=92	=92	=92	=92	=92	=92	=92	=92
8C/L	.	8c\L	.	16f/LL	.	(16a\LL	.	1cc_	.	1ccc_	.
.	.	.	.	(16g/	.	16b-\	.	.	.	.	.
8C/	.	8c\	.	16a/	.	16cc\	.	.	.	.	.
.	.	.	.	16g/JJ)	.	16b-\JJ)	.	.	.	.	.
8C/	.	8c\	.	4f/	.	4a\	.	.	.	.	.
8C/J	.	8c\J	.	.	.	.	.	.	.	.	.
8C/L	.	8c\L	.	4r	.	8a\	.	.	.	.	.
8C/	.	8c\	.	.	.	8r	.	.	.	.	.
8C/	.	8c\	.	8g/L	.	8b-T\L	.	.	.	.	.
8C/J	.	8c\J	.	(16f/L	.	(16a\L	.	.	.	.	.
.	.	.	.	16g/JJ)	.	16b-\JJ)	.	.	.	.	.
!	!	!	!	!	!	!LO:LB:g=original	!	!	!	!	!
=93	=93	=93	=93	=93	=93	=93	=93	=93	=93	=93	=93
.	.	.	.	8qqg/	.	8qqb-/	.	.	.	.	.
8C/L	.	8c\L	.	2a/	.	2cc\	.	1cc_	.	1ccc_	.
8C/	.	8c\	.	.	.	.	.	.	.	.	.
8C/	.	8c\	.	.	.	.	.	.	.	.	.
8C/J	.	8c\J	.	.	.	.	.	.	.	.	.
8C/L	.	8c\L	.	2r	.	2r	.	.	.	.	.
8C/	.	8c\	.	.	.	.	.	.	.	.	.
8C/	.	8c\	.	.	.	.	.	.	.	.	.
8C/J	.	8c\J	.	.	.	.	.	.	.	.	.
=94	=94	=94	=94	=94	=94	=94	=94	=94	=94	=94	=94
!LO:TX:t=P:problem=takt zapisany repetycją	!	!	!	!	!	!	!	!	!	!	!
8C/Lyy	.	8c\L	.	(16a\LL	.	(16ff\LL	.	1cc_	.	1ccc_	.
.	.	.	.	16b-\	.	16gg\	.	.	.	.	.
8C/yy	.	8c\	.	16cc\	.	16aa\	.	.	.	.	.
.	.	.	.	16b-\JJ)	.	16gg\JJ)	.	.	.	.	.
8C/yy	.	8c\	.	4a\	.	4ff\	.	.	.	.	.
8C/Jyy	.	8c\J	.	.	.	.	.	.	.	.	.
8C/Lyy	.	8c\L	.	4r	.	8ff\	.	.	.	.	.
8C/yy	.	8c\	.	.	.	8r	.	.	.	.	.
.	.	.	.	.	.	8qqaa/	.	.	.	.	.
8C/yy	.	8c\	.	8b-\L	.	8ggT\L	.	.	.	.	.
8C/Jyy	.	8c\J	.	(16a\L	.	(16ff\L	.	.	.	.	.
.	.	.	.	16b-\JJ)	.	16gg\JJ)	.	.	.	.	.
=95	=95	=95	=95	=95	=95	=95	=95	=95	=95	=95	=95
!	!	!LO:TX:t=P:problem=takt zapisany repetycją	!	!	!	!	!	!	!	!	!
.	.	.	.	8qqb-/	.	8qqgg/	.	.	.	.	.
8C/L	.	8c\Lyy	.	2cc\	.	2aa\	.	1cc_	.	1ccc_	.
8C/	.	8c\yy	.	.	.	.	.	.	.	.	.
8C/	.	8c\yy	.	.	.	.	.	.	.	.	.
8C/J	.	8c\Jyy	.	.	.	.	.	.	.	.	.
8C/L	.	8c\Lyy	.	2r	.	2r	.	.	.	.	.
8C/	.	8c\yy	.	.	.	.	.	.	.	.	.
8C/	.	8c\yy	.	.	.	.	.	.	.	.	.
8C/J	.	8c\Jyy	.	.	.	.	.	.	.	.	.
=96	=96	=96	=96	=96	=96	=96	=96	=96	=96	=96	=96
!	!	!	!	!	!LO:HP:a:t=cres	!	!LO:HP:a:t=cerscendo	!	!	!	!
8C/L	.	8c\L	.	(16e/LL	<	(16g/LL	<	1cc_	.	1ccc_	.
.	.	.	.	16d/	.	16f/	.	.	.	.	.
8C/	.	8c\	.	16e/)	.	16g/)	.	.	.	.	.
.	.	.	.	16f/JJ	.	16a/JJ	.	.	.	.	.
8C/	.	8c\	.	4e/	.	4g/	.	.	.	.	.
8C/J	.	8c\J	.	.	.	.	.	.	.	.	.
8C/L	.	8c\L	.	4r	.	4r	.	.	.	.	.
8C/	.	8c\	.	.	.	.	.	.	.	.	.
!	!	!	!	!	!	!LO:TX:t=P:problem=brak pauzy ósemkowej na koniec taktu	!	!	!	!	!
8C/	.	8c\	.	8f/	.	8a/	.	.	.	.	.
8C/J	.	8c\J	.	8r	.	8ryy	.	.	.	.	.
*Xtremolo	*	*	*	*	*	*	*	*	*	*	*
=97	=97	=97	=97	=97	=97	=97	=97	=97	=97	=97	=97
.	.	.	.	.	.	8qqcc/	.	.	.	.	.
8C/L	.	8c\L	.	(16g/LL	.	(16b-\LL	.	1cc_	.	1ccc_	.
.	.	.	.	16a/	.	16a\	.	.	.	.	.
8C/	.	8c\	.	16b-/	.	16b-\	.	.	.	.	.
.	.	.	.	16a/JJ)	.	16cc\JJ)	.	.	.	.	.
8C/	.	8c\	.	4g/	.	4b-\	.	.	.	.	.
8C/J	.	8c\J	.	.	.	.	.	.	.	.	.
*	*	*Xtremolo	*	*	*	*	*	*	*	*	*
8C/L	.	8c\L	.	4r	.	4r	.	.	.	.	.
8C/	.	8c\	.	.	.	.	.	.	.	.	.
8BB-/	.	8B-\	.	8g/	.	8ee\	.	.	.	.	.
8BB-/J	.	8B-\J	.	8r	.	8r	.	.	.	.	.
=98	=98	=98	=98	=98	=98	=98	=98	=98	=98	=98	=98
!LO:TX:t=P:problem=mixed beam	!	!	!	!	!	!	!LO:DY:a:Bi:t=f&colon;	!	!	!	!
.	.	.	.	.	.	8qqgg/	f	.	.	.	.
*	*	*	*	*tremolo	*	*	*	*	*	*	*
!	!	!	!LO:DY:a:Bi:t=f&colon;	!	!LO:DY:a	!	!	!	!	!	!
8AA/L	.	8A\L	f	16f/LL	f	(16ff\LL	.	4cc\]	.	4ccc\]	.
.	.	.	.	16f/	.	16ee\	.	.	.	.	.
8F\	.	8f\	.	16f/	.	16ff\	.	.	.	.	.
.	.	.	.	16f/JJ	.	16gg\JJ)	.	.	.	.	.
!	!	!	!	!	!	!	!LO:DY:a:Bi:t=p&colon;	!	!	!	!
8AA/	.	8A\	.	16f/LL	.	[2ff\	p	4r	.	4r	.
.	.	.	.	16f/	.	.	.	.	.	.	.
8F\J	.	8f\J	.	16f/	.	.	.	.	.	.	.
.	.	.	.	16f/JJ	.	.	.	.	.	.	.
!LO:TX:t=P:problem=mixed beam	!	!	!	!	!	!	!	!	!	!	!
8AA/L	.	8A\L	.	16f/LL	.	.	.	2r	.	2r	.
.	.	.	.	16f/	.	.	.	.	.	.	.
8F\	.	8f\	.	16f/	.	.	.	.	.	.	.
.	.	.	.	16f/JJ	.	.	.	.	.	.	.
8AA/	.	8A\	.	16f/LL	.	8ff\L]	.	.	.	.	.
.	.	.	.	16f/	.	.	.	.	.	.	.
8F\J	.	8f\J	.	16f/	.	8cc\J	.	.	.	.	.
.	.	.	.	16f/JJ	.	.	.	.	.	.	.
!	!	!	!	!	!	!	!	!LO:LB:g=original	!	!	!
=99	=99	=99	=99	=99	=99	=99	=99	=99	=99	=99	=99
.	.	.	.	.	.	8qqcc#X/	.	.	.	.	.
!	!	!	!	!	!	!	!LO:DY:a	!	!	!	!
8BB-\L	.	8B-\L	.	16f/LL	.	2.dd\	f	1r	.	1r	.
.	.	.	.	16f/	.	.	.	.	.	.	.
8F\	.	8f\	.	16f/	.	.	.	.	.	.	.
.	.	.	.	16f/JJ	.	.	.	.	.	.	.
8BB-\	.	8B-\	.	16f/LL	.	.	.	.	.	.	.
.	.	.	.	16f/	.	.	.	.	.	.	.
8F\J	.	8f\J	.	16f/	.	.	.	.	.	.	.
.	.	.	.	16f/JJ	.	.	.	.	.	.	.
!	!	!	!	!LO:LB:g=original	!	!	!	!	!	!	!
8BB-\L	.	8B-\L	.	16f/LL	.	.	.	.	.	.	.
.	.	.	.	16f/	.	.	.	.	.	.	.
8F\	.	8f\	.	16f/	.	.	.	.	.	.	.
.	.	.	.	16f/JJ	.	.	.	.	.	.	.
!	!	!	!	!	!	!LO:SIC:v:s=8.ccn\L	!	!	!	!	!
8BB-\	.	8B-\	.	16f/LL	.	8.cc#y\L	.	.	.	.	.
.	.	.	.	16f/	.	.	.	.	.	.	.
8F\J	.	8f\J	.	16f/	.	.	.	.	.	.	.
.	.	.	.	16f/JJ	.	16b-\Jk	.	.	.	.	.
!	!	!LO:LB:g=original	!	!	!	!	!	!	!	!	!
=100	=100	=100	=100	=100	=100	=100	=100	=100	=100	=100	=100
8C\L	.	8c\L	.	16f/LL	.	4a/	.	2ff\	.	(4aa\	.
.	.	.	.	16f/	.	.	.	.	.	.	.
8F\	.	8f\	.	16f/	.	.	.	.	.	.	.
.	.	.	.	16f/JJ	.	.	.	.	.	.	.
8C\	.	8c\	.	16f/LL	.	8.cc\L	.	.	.	8.ccc\L)	.
.	.	.	.	16f/	.	.	.	.	.	.	.
8F\J	.	8f\J	.	16f/	.	.	.	.	.	.	.
.	.	.	.	16f/JJ	.	16a\Jk	.	.	.	16ff\Jk	.
8C\L	.	8c\L	.	16c/LL	.	4c/	.	4cc\	.	4cc\	.
.	.	.	.	16c/	.	.	.	.	.	.	.
8F\J	.	8f\	.	16c/	.	.	.	.	.	.	.
.	.	.	.	16c/JJ	.	.	.	.	.	.	.
!LO:LB:g=original	!	!	!	!	!	!	!	!	!	!	!
8C\L	.	8c\	.	16B-/LL	.	4gT/	.	4b-\	.	4ggT\	.
.	.	.	.	16B-/	.	.	.	.	.	.	.
8E\J	.	8e\J	.	16B-/	.	.	.	.	.	.	.
.	.	.	.	16B-/JJ	.	.	.	.	.	.	.
*	*	*	*	*Xtremolo	*	*	*	*	*	*	*
!	!	!	!	!	!	!LO:LB:g=original	!	!	!	!	!
=101	=101	=101	=101	=101	=101	=101	=101	=101	=101	=101	=101
!LO:TX:t=P:problem=mixed beam	!	!LO:TX:t=P:problem=mixed beam	!	!	!LO:DY:a	!	!LO:DY:a	!	!	!	!
8FF/L	.	8F/L	.	16A/LL	p	(16ff\LL	p	2a/	.	2ff\	.
.	.	.	.	16f/	.	16ee\	.	.	.	.	.
8F\	.	8f\	.	16f/	.	16ff\	.	.	.	.	.
.	.	.	.	16f/JJ	.	16gg\JJ)	.	.	.	.	.
*	*	*	*	*tremolo	*	*	*	*	*	*	*
8AA/	.	8A/	.	16f/LL	.	2ff\	.	.	.	.	.
.	.	.	.	16f/	.	.	.	.	.	.	.
8F\J	.	8f\J	.	16f/	.	.	.	.	.	.	.
.	.	.	.	16f/JJ	.	.	.	.	.	.	.
!LO:TX:t=P:problem=mixed beam	!	!LO:TX:t=P:problem=mixed beam	!	!	!	!	!	!	!	!	!
8AA/L	.	8A/L	.	16f/LL	.	.	.	2r	.	2r	.
.	.	.	.	16f/	.	.	.	.	.	.	.
8F\	.	8f\	.	16f/	.	.	.	.	.	.	.
.	.	.	.	16f/JJ	.	.	.	.	.	.	.
8AA/	.	8A/	.	16f/LL	.	(8ff\L	.	.	.	.	.
.	.	.	.	16f/	.	.	.	.	.	.	.
8F\J	.	8f\J	.	16f/	.	8cc\J)	.	.	.	.	.
.	.	.	.	16f/JJ	.	.	.	.	.	.	.
=102	=102	=102	=102	=102	=102	=102	=102	=102	=102	=102	=102
!LO:TX:t=P:problem=mixed beam	!	!	!	!	!	!	!	!	!	!	!
.	.	.	.	.	.	8qqcc#X/	.	.	.	.	.
8BB-/L	.	8B-\L	.	16f/LL	.	2.dd\	.	1r	.	1r	.
.	.	.	.	16f/	.	.	.	.	.	.	.
8F\	.	8f\	.	16f/	.	.	.	.	.	.	.
.	.	.	.	16f/JJ	.	.	.	.	.	.	.
8BB-/	.	8B-\	.	16f/LL	.	.	.	.	.	.	.
.	.	.	.	16f/	.	.	.	.	.	.	.
8F\J	.	8f\J	.	16f/	.	.	.	.	.	.	.
.	.	.	.	16f/JJ	.	.	.	.	.	.	.
!LO:TX:t=P:problem=mixed beam	!	!	!	!	!	!	!	!	!	!	!
8BB-/L	.	8B-\L	.	16f/LL	.	.	.	.	.	.	.
.	.	.	.	16f/	.	.	.	.	.	.	.
8F\	.	8f\	.	16f/	.	.	.	.	.	.	.
.	.	.	.	16f/JJ	.	.	.	.	.	.	.
!	!	!	!	!	!	!LO:SIC:v:s=8.ccn\L	!	!	!	!	!
8BB-/	.	8B-\	.	16f/LL	.	8.cc#y\L	.	.	.	.	.
.	.	.	.	16f/	.	.	.	.	.	.	.
8F\J	.	8f\J	.	16f/	.	.	.	.	.	.	.
.	.	.	.	16f/JJ	.	16b-\Jk	.	.	.	.	.
!	!	!	!	!	!	!	!	!	!	!LO:LB:g=original	!
=103	=103	=103	=103	=103	=103	=103	=103	=103	=103	=103	=103
!	!	!	!	!	!LO:DY:a	!	!LO:DY:a	!	!	!	!
8C\L	.	8c\L	.	16f/LL	f	4a\	f	2ff\	.	4aa\	.
.	.	.	.	16f/	.	.	.	.	.	.	.
8F\	.	8f\	.	16f/	.	.	.	.	.	.	.
.	.	.	.	16f/JJ	.	.	.	.	.	.	.
8C\	.	8c\	.	16f/LL	.	8.cc\L	.	.	.	8.ccc\L	.
.	.	.	.	16f/	.	.	.	.	.	.	.
8F\J	.	8f\J	.	16f/	.	.	.	.	.	.	.
.	.	.	.	16f/JJ	.	16a\Jk	.	.	.	16ff\Jk	.
8C\L	.	8c\L	.	16c/LL	.	4c/	.	4cc\	.	4cc\	.
.	.	.	.	16c/	.	.	.	.	.	.	.
8F\	.	8f\	.	16c/	.	.	.	.	.	.	.
.	.	.	.	16c/JJ	.	.	.	.	.	.	.
8C\	.	8e\	.	16B-/LL	.	4gT/	.	4b-\	.	4gg\	.
.	.	.	.	16B-/	.	.	.	.	.	.	.
!LO:TX:t=P:problem=f poprawione na e	!	!	!	!	!	!	!	!	!	!	!
!LO:TX:t=e	!	!	!	!	!	!	!	!	!	!	!
8E\J	.	8c\J	.	16B-/	.	.	.	.	.	.	.
.	.	.	.	16B-/JJ	.	.	.	.	.	.	.
*	*	*	*	*Xtremolo	*	*	*	*	*	*	*
=104	=104	=104	=104	=104	=104	=104	=104	=104	=104	=104	=104
4F\	.	4c\	.	4A/	.	4f/	.	4a/	.	4ff\	.
4FF/	.	4f\	.	4a 4f 4A/	.	4ff 4cc 4f/	.	4a/	.	4ff\	.
2F\	.	2f\	.	2a 2f 2A/	.	2ff 2cc 2f/	.	2a/	.	2ff\	.
=:|!;	=:|!	=:|!;	=:|!	=:|!;	=:|!	=:|!;	=:|!	=:|!;	=:|!	=:|!;	=:|!
*-	*-	*-	*-	*-	*-	*-	*-	*-	*-	*-	*-
!!!system-decoration: [g1][g2]g3
!!!RDF**kern: > = above
!!!RDF**kern: < = below
!!!ENC: Katarzyna Serwa
!!!END: 2022-01-10
!!!ENC: Mateusz Solarz
!!!END: 2020-02-17
